<?xml version="1.0" encoding="UTF-8"?>
<map version="1.10" tiledversion="1.12.2" orientation="orthogonal" renderorder="left-up" width="20" height="17" tilewidth="32" tileheight="32" infinite="0" nextlayerid="22" nextobjectid="1">
 <tileset firstgid="1" source="../Tilesets/Interiors.tsx"/>
 <tileset firstgid="785" source="../Tilesets/passages.tsx"/>
 <tileset firstgid="929" source="../Tilesets/systemtags.tsx"/>
 <layer id="14" name="outside_1" width="20" height="17">
  <data encoding="csv">
1,1,1,1,1,1,1,1,1,1,1,1,1,1,1,1,1,1,1,1,
1,1,1,1,1,1,1,1,1,1,1,1,1,1,1,1,1,1,1,1,
1,1,38,39,1,1,1,1,1,1,1,1,1,1,1,1,1,1,201,1,
1,11,66,39,1,1,1,1,1,1,1,1,1,1,1,1,0,0,259,1,
1,232,66,1,1,1,1,1,1,1,1,1,1,1,1,1,0,0,259,1,
1,260,1,1,1,1,1,1,1,1,1,1,1,1,1,1,0,0,259,1,
1,260,1,1,1,1,1,1,1,1,1,1,1,1,1,1,0,0,259,1,
1,260,1,1,1,1,1,1,1,1,1,1,1,1,1,1,0,0,259,1,
1,260,1,1,1,1,1,1,1,1,1,1,1,1,1,1,0,0,259,1,
1,260,57,58,58,58,58,58,58,58,58,58,58,58,58,1,0,0,259,1,
1,260,57,57,57,57,57,57,57,57,57,57,57,57,58,1,0,0,259,1,
1,260,1,1,1,1,1,1,1,1,1,1,1,1,1,1,0,0,259,1,
1,288,1,1,1,1,1,1,1,1,1,1,1,1,1,1,0,0,287,1,
1,316,1,1,1,1,1,1,1,1,1,1,1,1,1,1,0,0,315,1,
1,344,1,1,1,1,1,1,1,1,1,1,1,1,1,1,0,0,343,1,
1,1,1,1,1,1,1,1,1,1,1,1,1,1,1,1,1,1,1,1,
1,1,1,1,1,1,1,1,1,1,1,1,1,1,1,1,1,1,1,1
</data>
 </layer>
 <layer id="1" name="floor_1" width="20" height="17">
  <data encoding="csv">
0,0,0,0,0,0,0,0,0,0,0,0,0,0,0,0,0,0,0,0,
0,0,0,0,0,0,0,0,0,0,0,0,0,0,0,0,0,0,0,0,
0,0,0,0,0,0,0,0,0,0,0,0,0,0,0,0,0,0,0,0,
0,0,0,0,0,0,0,0,0,0,0,0,0,0,0,57,58,57,0,0,
0,0,0,0,0,0,0,0,0,0,0,0,0,0,0,57,58,57,0,0,
0,0,0,29,30,29,30,29,30,29,30,29,30,29,30,29,30,29,0,0,
0,0,30,85,58,57,58,57,58,57,58,57,58,57,58,57,58,57,0,0,
0,0,113,0,0,0,0,0,0,0,0,0,0,0,0,57,58,57,0,0,
0,0,0,0,0,0,0,0,0,0,0,0,0,0,0,57,58,57,0,0,
0,0,29,30,29,30,29,30,29,30,29,58,57,30,29,57,58,57,0,0,
0,0,29,58,57,58,57,58,57,58,57,58,57,58,57,57,58,57,0,0,
0,0,29,58,57,58,57,58,57,58,57,58,57,58,57,57,58,57,0,0,
0,0,29,58,57,58,57,58,57,58,57,58,57,58,57,57,58,57,0,0,
0,0,29,58,57,58,57,58,57,58,57,58,57,58,57,57,58,57,0,0,
0,0,29,58,57,58,57,58,57,58,57,58,57,58,57,57,58,57,0,0,
0,0,0,0,0,0,0,0,0,0,0,0,0,0,0,0,0,0,0,0,
0,0,0,0,0,0,0,0,0,0,0,0,0,0,0,0,0,0,0,0
</data>
 </layer>
 <layer id="13" name="carpet_1" width="20" height="17">
  <data encoding="csv">
0,0,0,0,0,0,0,0,0,0,0,0,0,0,0,0,0,0,0,0,
0,0,0,0,0,0,0,0,0,0,0,0,0,0,0,0,0,0,0,0,
0,0,0,0,0,0,0,0,0,0,0,0,0,0,0,0,0,0,0,0,
0,0,0,0,0,0,0,0,0,0,0,0,0,0,0,0,0,0,0,0,
0,0,0,0,0,0,0,0,0,0,0,0,0,0,0,0,0,0,0,0,
0,0,0,0,0,0,0,0,0,0,0,0,0,0,0,0,0,0,0,0,
0,0,0,0,0,0,0,0,0,0,0,0,0,0,0,0,0,0,0,0,
0,0,0,0,0,0,0,0,0,0,0,0,0,0,0,0,0,0,0,0,
0,0,0,0,0,0,0,0,0,0,0,1,0,0,0,0,0,0,0,0,
0,0,0,0,0,353,354,355,0,0,0,0,0,0,0,0,0,0,0,0,
0,0,0,0,0,381,382,383,0,213,214,214,214,214,214,0,0,0,0,0,
0,0,0,0,0,409,410,411,0,241,242,242,242,242,242,0,0,0,0,0,
0,0,0,0,0,437,438,439,0,269,270,270,270,270,270,0,0,0,0,0,
0,0,0,0,0,465,466,467,0,269,270,270,270,270,270,0,0,0,0,0,
0,0,0,0,0,182,183,184,0,297,298,298,298,298,298,182,183,184,0,0,
0,0,0,0,0,210,211,212,0,325,326,326,326,326,327,210,211,212,0,0,
0,0,0,0,0,0,0,0,0,0,0,0,0,0,0,0,0,0,0,0
</data>
 </layer>
 <layer id="8" name="walls_1" width="20" height="17">
  <data encoding="csv">
0,0,0,0,0,0,0,0,0,0,0,0,0,0,0,0,0,0,0,0,
0,0,0,0,0,0,0,0,0,0,0,0,0,0,0,0,0,0,0,0,
0,0,0,0,115,116,117,115,116,117,115,116,117,115,116,117,115,116,0,0,
0,0,0,67,143,144,145,143,144,145,143,144,145,143,144,145,143,144,0,0,
0,0,234,235,171,172,173,171,172,173,171,172,173,171,172,173,171,172,0,0,
0,0,262,263,0,0,0,0,0,0,0,0,0,0,0,0,0,0,0,0,
0,0,290,291,0,0,0,0,0,0,0,0,0,0,0,0,0,0,0,0,
0,0,198,199,199,199,199,199,199,199,199,199,199,199,199,0,0,0,0,0,
0,0,226,227,227,227,227,227,227,227,227,227,227,227,227,0,0,0,0,0,
0,0,0,0,0,0,0,0,0,0,0,0,0,0,0,0,0,0,0,0,
0,0,0,0,0,0,0,0,0,0,0,0,0,0,0,0,0,0,0,0,
0,0,0,0,0,0,0,0,0,0,0,0,0,0,0,0,0,0,0,0,
0,0,0,0,0,0,0,0,0,0,0,0,0,0,0,0,0,0,0,0,
0,0,0,0,0,0,0,0,0,0,0,0,0,0,0,0,0,0,0,0,
0,0,0,0,0,0,0,0,0,0,0,0,0,0,0,0,0,0,0,0,
0,0,0,0,0,0,0,0,0,0,0,0,0,0,0,0,0,0,0,0,
0,0,0,0,0,0,0,0,0,0,0,0,0,0,0,0,0,0,0,0
</data>
 </layer>
 <layer id="10" name="counter_1" width="20" height="17">
  <data encoding="csv">
0,0,0,0,0,0,0,0,0,0,0,0,0,0,0,0,0,0,0,0,
0,0,0,0,0,0,0,0,0,0,0,0,0,0,0,0,0,0,0,0,
0,0,0,0,0,0,0,0,0,0,0,0,0,0,0,0,0,0,0,0,
0,0,0,0,0,0,0,0,0,0,0,0,0,0,0,0,0,0,0,0,
0,0,0,0,0,0,0,0,0,0,0,0,0,0,0,0,0,0,0,0,
0,0,0,0,0,0,0,0,0,0,0,0,0,0,0,0,0,0,0,0,
0,0,0,0,0,0,0,0,0,0,0,0,0,0,0,0,0,0,0,0,
0,0,0,0,0,0,0,0,0,0,0,0,0,0,0,0,0,0,0,0,
0,0,0,0,0,0,0,0,0,0,0,0,0,0,0,0,0,0,0,0,
0,0,0,0,289,0,0,0,0,0,0,0,0,0,0,0,0,0,0,0,
0,0,0,0,317,0,0,0,0,0,0,0,0,0,0,0,0,0,0,0,
0,0,0,0,317,0,0,0,0,0,0,0,0,0,0,0,0,0,0,0,
0,0,337,338,339,0,0,0,0,0,0,0,0,0,0,0,0,0,0,0,
0,0,365,366,367,0,0,0,0,0,0,0,0,0,0,0,0,0,0,0,
0,0,0,0,0,0,0,0,0,0,0,0,0,0,0,0,0,0,0,0,
0,0,0,0,0,0,0,0,0,0,0,0,0,0,0,0,0,0,0,0,
0,0,0,0,0,0,0,0,0,0,0,0,0,0,0,0,0,0,0,0
</data>
 </layer>
 <layer id="17" name="decoration_1" width="20" height="17">
  <data encoding="csv">
0,0,0,0,0,0,0,0,0,0,0,0,0,0,0,0,0,0,0,0,
0,0,0,0,0,0,0,0,0,0,0,0,0,0,0,0,0,0,0,0,
0,0,0,0,0,0,0,0,0,0,0,0,0,0,0,0,0,0,0,0,
0,0,0,0,0,0,0,0,0,0,0,0,0,0,0,0,266,267,0,0,
0,0,0,0,0,0,0,0,0,0,0,0,0,0,0,0,294,295,0,0,
0,0,0,0,0,0,0,0,0,0,0,0,0,0,0,0,0,314,0,0,
0,0,0,0,0,0,0,0,0,0,0,0,0,0,0,0,0,0,0,0,
0,0,253,254,272,273,274,0,0,0,0,0,0,272,273,0,0,289,0,0,
0,0,281,282,300,301,302,0,0,0,0,0,0,300,301,0,0,317,0,0,
0,0,309,310,0,230,412,0,0,0,314,0,0,314,193,0,0,345,0,0,
0,0,0,0,0,0,0,0,0,0,0,0,0,0,0,0,0,230,0,0,
0,0,0,0,0,0,0,0,0,0,0,0,0,0,0,0,0,0,0,0,
0,0,137,0,0,0,0,0,0,0,0,0,0,0,0,0,0,137,0,0,
0,0,165,0,0,0,0,0,0,0,0,0,0,0,0,0,0,165,0,0,
0,0,193,0,314,0,0,0,314,0,0,0,0,0,0,0,0,193,0,0,
0,0,0,0,0,0,0,0,0,0,0,0,0,0,0,0,0,0,0,0,
0,0,0,0,0,0,0,0,0,0,0,0,0,0,0,0,0,0,0,0
</data>
 </layer>
 <layer id="12" name="furniture_a_1" width="20" height="17">
  <data encoding="csv">
0,0,0,0,0,0,0,0,0,0,0,0,0,0,0,0,0,0,0,0,
0,0,0,0,0,0,0,0,0,0,0,0,0,0,0,0,0,0,0,0,
0,0,0,0,0,0,0,0,0,0,0,0,0,0,0,0,0,0,0,0,
0,0,0,0,0,0,0,0,0,0,0,0,0,0,0,0,0,0,0,0,
0,0,0,0,0,0,0,0,0,0,0,0,0,0,0,0,0,0,0,0,
0,0,0,0,0,0,0,0,0,0,0,0,0,0,0,0,0,0,0,0,
0,0,0,0,0,0,0,0,0,0,0,0,0,0,0,0,0,0,0,0,
0,0,0,0,0,0,0,0,0,0,0,0,0,0,0,0,0,0,0,0,
0,0,0,0,0,0,0,0,0,0,0,0,0,0,0,0,0,0,0,0,
0,0,0,0,0,0,0,0,0,0,0,0,0,0,0,0,0,0,0,0,
0,0,0,0,0,0,0,0,0,0,0,0,0,0,0,0,0,0,0,0,
0,0,0,0,0,0,0,0,0,0,0,0,258,0,0,0,0,0,0,0,
0,0,0,0,0,0,0,0,0,0,0,0,0,0,0,0,0,0,0,0,
0,0,0,0,0,0,0,0,0,0,0,0,0,0,0,0,0,0,0,0,
0,0,0,0,0,0,0,0,0,0,0,0,0,0,0,0,0,0,0,0,
0,0,0,0,0,0,0,0,0,0,0,0,0,0,0,0,0,0,0,0,
0,0,0,0,0,0,0,0,0,0,0,0,0,0,0,0,0,0,0,0
</data>
 </layer>
 <layer id="11" name="furniture_1" width="20" height="17">
  <data encoding="csv">
0,0,0,0,0,0,0,0,0,0,0,0,0,0,0,0,0,0,0,0,
0,0,0,0,0,0,0,0,0,0,0,0,0,0,0,0,0,0,0,0,
0,0,0,0,0,0,0,0,0,0,0,0,0,0,0,0,0,0,0,0,
0,0,0,0,0,0,0,0,0,0,0,0,0,0,0,0,0,0,0,0,
0,0,0,0,0,0,0,0,0,0,0,0,0,0,0,0,0,0,0,0,
0,0,0,0,0,0,0,0,0,0,0,0,0,0,0,0,0,0,0,0,
0,0,0,0,0,0,0,0,0,0,0,0,0,0,0,0,0,0,0,0,
0,0,0,0,0,0,0,0,0,0,0,0,0,0,0,0,0,0,0,0,
0,0,0,0,0,0,0,0,0,0,0,0,0,0,0,0,0,0,0,0,
0,0,0,0,0,0,0,0,0,0,0,0,0,0,0,0,0,0,0,0,
0,0,0,0,0,0,0,0,0,0,0,0,0,0,0,0,0,0,0,0,
0,0,0,0,0,0,0,0,0,0,0,255,256,257,0,0,0,0,0,0,
0,0,0,0,0,0,0,0,0,0,258,283,284,285,258,0,0,0,0,0,
0,0,0,0,0,0,0,0,0,0,0,311,312,313,258,0,0,0,0,0,
0,0,0,0,0,0,0,0,0,0,0,0,258,0,0,0,0,0,0,0,
0,0,0,0,0,0,0,0,0,0,0,0,0,0,0,0,0,0,0,0,
0,0,0,0,0,0,0,0,0,0,0,0,0,0,0,0,0,0,0,0
</data>
 </layer>
 <layer id="15" name="frames" width="20" height="17">
  <data encoding="csv">
0,0,0,0,0,0,0,0,0,0,0,0,0,0,0,0,0,0,0,0,
0,0,0,0,0,0,0,0,0,0,0,0,0,0,0,0,0,0,0,0,
0,0,0,0,0,0,0,0,0,0,0,0,0,0,0,0,0,0,0,0,
0,0,0,0,0,0,0,0,0,0,0,0,0,0,0,0,0,0,0,0,
0,0,0,0,0,0,0,0,0,0,0,0,0,0,0,0,0,0,0,0,
0,0,0,0,0,0,0,0,0,0,0,0,0,0,0,0,0,0,0,0,
0,0,0,0,0,0,0,0,0,0,0,0,0,0,0,194,0,0,0,0,
0,0,0,0,0,0,0,0,0,0,0,0,0,0,0,222,0,0,0,0,
0,0,0,0,0,0,0,0,0,0,0,0,0,0,0,250,0,0,0,0,
0,0,0,0,0,0,0,0,0,0,0,0,0,0,0,250,0,0,0,0,
0,0,0,0,0,0,0,0,0,0,0,0,0,0,0,250,0,0,0,0,
0,0,0,0,0,0,0,0,0,0,0,0,0,0,0,250,0,0,0,0,
0,0,0,0,0,0,0,0,0,0,0,0,0,0,0,278,0,0,0,0,
0,0,0,0,0,0,0,0,0,0,0,0,0,0,0,306,0,0,0,0,
0,0,0,0,0,0,0,0,0,0,0,0,0,0,0,334,0,0,0,0,
0,0,0,0,0,0,0,0,0,11,11,11,11,11,11,0,0,0,0,0,
0,0,0,0,0,0,0,0,0,0,0,0,0,0,0,0,0,0,0,0
</data>
 </layer>
 <layer id="9" name="stairs_1" width="20" height="17">
  <data encoding="csv">
0,0,0,0,0,0,0,0,0,0,0,0,0,0,0,0,0,0,0,0,
0,0,0,0,0,0,0,0,0,0,0,0,0,0,0,0,0,0,0,0,
0,0,0,0,0,0,0,0,0,0,0,0,0,0,0,0,0,0,0,0,
0,0,0,0,0,0,0,0,0,0,0,0,0,0,0,0,0,0,0,0,
0,0,0,0,0,0,0,0,0,0,0,0,0,0,0,0,0,0,0,0,
0,0,0,0,0,0,0,0,0,0,0,0,0,0,0,0,0,0,0,0,
0,0,0,0,0,0,0,0,0,0,0,0,0,0,0,0,0,0,0,0,
0,0,0,0,0,0,0,0,0,0,0,318,319,0,0,0,0,0,0,0,
0,0,0,0,0,0,0,0,0,0,0,346,347,0,0,0,0,0,0,0,
0,0,0,0,0,0,0,0,0,0,0,374,375,0,0,0,0,0,0,0,
0,0,0,0,0,0,0,0,0,0,0,0,0,0,0,0,0,0,0,0,
0,0,0,0,0,0,0,0,0,0,0,0,0,0,0,0,0,0,0,0,
0,0,0,0,0,0,0,0,0,0,0,0,0,0,0,0,0,0,0,0,
0,0,0,0,0,0,0,0,0,0,0,0,0,0,0,0,0,0,0,0,
0,0,0,0,0,0,0,0,0,0,0,0,0,0,0,0,0,0,0,0,
0,0,0,0,0,0,0,0,0,0,0,0,0,0,0,0,0,0,0,0,
0,0,0,0,0,0,0,0,0,0,0,0,0,0,0,0,0,0,0,0
</data>
 </layer>
 <group id="3" name="z=0"/>
 <layer id="16" name="door_2" width="20" height="17">
  <data encoding="csv">
0,0,0,0,0,0,0,0,0,0,0,0,0,0,0,0,0,0,0,0,
0,0,0,0,0,0,0,0,0,0,0,0,0,0,0,0,0,0,0,0,
0,0,0,0,0,0,0,0,0,0,0,0,0,0,0,0,0,0,0,0,
0,0,0,0,130,131,132,130,131,132,130,131,132,130,131,132,0,0,0,0,
0,0,0,0,158,159,160,158,159,160,158,159,160,158,159,160,0,0,0,0,
0,0,0,0,186,187,188,186,0,188,186,187,188,186,0,188,0,0,0,0,
0,0,0,0,0,0,0,0,0,0,0,0,0,0,0,0,0,0,0,0,
0,0,0,0,0,0,0,130,131,132,0,0,0,0,0,0,0,0,0,0,
0,0,0,0,0,0,0,158,159,160,0,0,0,0,0,0,0,0,0,0,
0,0,0,0,0,0,0,186,187,188,0,0,0,0,0,0,0,0,0,0,
0,0,0,0,0,0,0,0,0,0,0,0,0,0,0,0,0,0,0,0,
0,0,0,0,0,0,0,0,0,0,0,0,0,0,0,0,0,0,0,0,
0,0,0,0,0,0,0,0,0,0,0,0,0,0,0,0,0,0,0,0,
0,0,0,0,0,0,0,0,0,0,0,0,0,0,0,0,0,0,0,0,
0,0,0,0,0,0,0,0,0,0,0,0,0,0,0,0,0,0,0,0,
0,0,0,0,0,0,0,0,0,0,0,0,0,0,0,0,0,0,0,0,
0,0,0,0,0,0,0,0,0,0,0,0,0,0,0,0,0,0,0,0
</data>
 </layer>
 <layer id="21" name="decoration_2" width="20" height="17">
  <data encoding="csv">
0,0,0,0,0,0,0,0,0,0,0,0,0,0,0,0,0,0,0,0,
0,0,0,0,0,0,0,0,0,0,0,0,0,0,0,0,0,0,0,0,
0,0,0,0,0,0,0,0,0,0,0,0,0,0,0,0,0,0,0,0,
0,0,0,0,0,0,0,0,0,0,0,0,0,0,0,0,0,0,0,0,
0,0,0,0,0,0,0,0,0,0,0,0,0,0,0,0,0,286,0,0,
0,0,0,0,0,0,0,0,0,0,0,0,0,0,0,0,0,0,0,0,
0,0,0,0,0,0,0,0,0,0,0,0,0,0,0,0,0,0,0,0,
0,0,0,0,0,0,0,0,0,0,0,0,0,0,0,0,0,0,0,0,
0,0,0,0,0,0,384,0,0,0,286,0,0,286,165,0,0,0,0,0,
0,0,0,0,0,0,0,0,0,0,0,0,0,0,0,0,0,0,0,0,
0,0,0,0,0,0,0,0,0,0,0,0,0,0,0,0,0,0,0,0,
0,0,0,0,0,0,0,0,0,0,0,0,0,0,0,0,0,0,0,0,
0,0,0,0,0,0,0,0,0,0,0,0,0,0,0,0,0,0,0,0,
0,0,0,0,286,0,0,0,286,0,0,0,0,0,0,0,0,0,0,0,
0,0,0,0,0,0,0,0,0,0,0,0,0,0,0,0,0,0,0,0,
0,0,0,0,0,0,0,0,0,0,0,0,0,0,0,0,0,0,0,0,
0,0,0,0,0,0,0,0,0,0,0,0,0,0,0,0,0,0,0,0
</data>
 </layer>
 <group id="4" name="z=1"/>
 <group id="5" name="z=2"/>
 <layer id="6" name="passages" width="20" height="17">
  <data encoding="csv">
0,0,0,0,0,0,0,0,0,0,0,0,0,0,0,0,0,0,0,0,
0,0,0,0,0,0,0,0,0,0,0,0,0,0,0,0,0,0,0,0,
0,0,0,0,0,0,0,0,0,0,0,0,0,0,0,0,0,0,0,0,
0,0,0,0,0,0,0,0,0,0,0,0,0,0,0,0,0,0,0,0,
0,0,0,0,0,0,0,0,0,0,0,0,0,0,0,0,0,0,0,0,
0,0,0,0,0,0,0,0,0,0,0,0,0,0,0,0,0,800,0,0,
0,0,0,0,0,0,0,0,0,0,0,0,0,0,0,0,0,0,0,0,
0,0,0,0,0,0,0,0,0,0,0,0,0,0,0,0,0,0,0,0,
0,0,0,0,0,0,0,0,0,0,0,0,0,0,0,0,0,0,0,0,
0,0,0,0,0,0,800,0,0,0,800,0,0,800,0,0,0,0,0,0,
0,0,0,0,0,0,0,0,0,0,0,0,0,0,0,0,0,0,0,0,
0,0,0,0,0,0,0,0,0,0,0,0,0,0,0,0,0,0,0,0,
0,0,0,0,0,0,0,0,0,0,0,0,0,0,0,0,0,0,0,0,
0,0,0,0,0,0,0,0,0,0,0,0,0,0,0,0,0,0,0,0,
0,0,0,0,800,0,0,0,800,0,0,0,0,0,0,0,0,0,0,0,
0,0,0,0,0,0,0,0,0,0,0,0,0,0,0,0,0,0,0,0,
0,0,0,0,0,0,0,0,0,0,0,0,0,0,0,0,0,0,0,0
</data>
 </layer>
 <layer id="7" name="systemtags" width="20" height="17">
  <data encoding="csv">
0,0,0,0,0,0,0,0,0,0,0,0,0,0,0,0,0,0,0,0,
0,0,0,0,0,0,0,0,0,0,0,0,0,0,0,0,0,0,0,0,
0,0,0,0,0,0,0,0,0,0,0,0,0,0,0,0,0,0,0,0,
0,0,0,0,0,0,0,0,0,0,0,0,0,0,0,0,0,0,0,0,
0,0,0,0,0,0,0,0,0,0,0,0,0,0,0,0,0,0,0,0,
0,0,0,0,0,0,0,0,0,0,0,0,0,0,0,0,0,0,0,0,
0,0,0,0,0,0,0,0,0,0,0,0,0,0,0,0,0,0,0,0,
0,0,0,0,0,0,0,0,0,0,0,963,963,0,0,0,0,0,0,0,
0,0,0,0,0,0,0,0,0,0,0,963,963,0,0,0,0,0,0,0,
0,0,0,0,0,0,0,0,0,0,0,963,963,0,0,0,0,0,0,0,
0,0,0,0,0,0,0,0,0,0,0,0,0,0,0,0,0,0,0,0,
0,0,0,0,0,0,0,0,0,0,0,0,0,0,0,0,0,0,0,0,
0,0,0,0,0,0,0,0,0,0,0,0,0,0,0,0,0,0,0,0,
0,0,0,0,0,0,0,0,0,0,0,0,0,0,0,0,0,0,0,0,
0,0,0,0,0,0,0,0,0,0,0,0,0,0,0,0,0,0,0,0,
0,0,0,0,0,0,0,0,0,0,0,0,0,0,0,0,0,0,0,0,
0,0,0,0,0,0,0,0,0,0,0,0,0,0,0,0,0,0,0,0
</data>
 </layer>
 <group id="2" name="infos"/>
</map>
