<?xml version="1.0" encoding="UTF-8"?>
<map version="1.10" tiledversion="1.12.2" orientation="orthogonal" renderorder="left-up" width="30" height="30" tilewidth="32" tileheight="32" infinite="0" nextlayerid="20" nextobjectid="1">
 <tileset firstgid="1" source="../Tilesets/exterior_spring.tsx"/>
 <tileset firstgid="2513" source="../Tilesets/dpp_underground.tsx"/>
 <tileset firstgid="11921" source="../Tilesets/animations_water.tsx"/>
 <tileset firstgid="13793" source="../Tilesets/passages.tsx"/>
 <tileset firstgid="13937" source="../Tilesets/systemtags.tsx"/>
 <layer id="1" name="rock_1" width="30" height="30">
  <data encoding="csv">
4786,4786,4786,4786,4786,4786,4786,4786,4786,4786,4786,4786,4786,4786,4786,4786,4786,4786,4786,4786,4786,4786,4786,4786,4786,4786,4786,4786,4786,4786,
4786,4786,4786,4786,4786,4786,4786,4786,4786,4786,4786,4786,4786,4786,4786,4786,4786,4786,4786,4786,4786,4786,4786,4786,4786,4786,4786,4786,4786,4786,
4786,4786,4786,4786,4786,4786,4786,4786,4786,4786,4786,4786,4786,4786,4786,4786,4786,4786,4786,4786,4786,4786,4786,4786,4786,4786,4786,4786,4786,4786,
4786,4786,4786,4786,4786,4786,4786,4786,4786,4786,4786,4786,4786,4786,4786,4786,4786,4786,4786,4786,4786,4786,4786,4786,4786,4786,4786,4786,4786,4786,
4786,4786,4786,4786,4786,4786,4786,4786,4786,4786,4786,4786,4786,4786,4786,4786,4786,4786,4786,4786,4786,4786,4786,4786,4786,4786,4786,4786,4786,4786,
4786,4786,4786,4786,4786,4786,4786,4786,4786,4786,4786,4786,4786,4786,4786,4786,4786,4786,4786,4786,4786,4786,4786,4786,4786,4786,4786,4786,4786,4786,
4786,4786,4786,4786,4786,4786,4786,4786,4786,4786,4786,4786,4786,4786,4786,4786,4786,4786,4786,4786,4786,4786,4786,4786,4786,4786,4786,4786,4786,4786,
4786,4786,4786,4786,4786,4786,4786,4786,4786,4786,4786,4786,4786,4786,4786,4786,4786,4786,4786,4786,4786,4786,4786,4786,4786,4786,4786,4786,4786,4786,
4786,4786,4786,4786,4786,4786,4786,4786,4786,4786,4786,4786,4786,4786,4786,4786,4786,4786,4786,4786,4786,4786,4786,4786,4786,4786,4786,4786,4786,4786,
4786,4786,4786,4786,4786,4786,4786,4786,4786,4786,4786,4786,4786,4786,4786,4786,4786,4786,4786,4786,4786,4786,4786,4786,4786,4786,4786,4786,4786,4786,
4786,4786,4786,4786,4786,4786,4786,4786,4786,4786,4786,4786,4786,4786,4786,4786,4786,4786,4786,4786,4786,4786,4786,4786,4786,4786,4786,4786,4786,4786,
4786,4786,4786,4786,4786,4786,4786,4786,4786,4786,4786,4786,4786,4786,4786,4786,4786,4786,4786,4786,4786,4786,4786,4786,4786,4786,4786,4786,4786,4786,
4786,4786,4786,4786,4786,4786,4786,4786,4786,4786,4786,4786,4786,4786,4786,4786,4786,4786,4786,4786,4786,4786,4786,4786,4786,4786,4786,4786,4786,4786,
4786,4786,4786,4786,4786,4786,4786,4786,4786,4786,4786,4786,4786,4786,4786,4786,4786,4786,4786,4786,4786,4786,4786,4786,4786,4786,4786,4786,4786,4786,
4786,4786,4786,4786,4786,4786,4786,4786,4786,4786,4786,4786,4786,4786,4786,4786,4786,4786,4786,4786,4786,4786,4786,4786,4786,4786,4786,4786,4786,4786,
4786,4786,4786,4786,4786,4786,4786,4786,4786,4786,4786,4786,4786,4786,4786,4786,4786,4786,4786,4786,4786,4786,4786,4786,4786,4786,4786,4786,4786,4786,
4786,4786,4786,4786,4786,4786,4786,4786,4786,4786,4786,4786,4786,4786,4786,4786,4786,4786,4786,4786,4786,4786,4786,4786,4786,4786,4786,4786,4786,4786,
4786,4786,4786,4786,4786,4786,4786,4786,4786,4786,4786,4786,4786,4786,4786,4786,4786,4786,4786,4786,4786,4786,4786,4786,4786,4786,4786,4786,4786,4786,
4786,4786,4786,4786,4786,4786,4786,4786,4786,4786,4786,4786,4786,4786,4786,4786,4786,4786,4786,4786,4786,4786,4786,4786,4786,4786,4786,4786,4786,4786,
4786,4786,4786,4786,4786,4786,4786,4786,4786,4786,4786,4786,4786,4786,4786,4786,4786,4786,4786,4786,4786,4786,4786,4786,4786,4786,4786,4786,4786,4786,
4786,4786,4786,4786,4786,4786,4786,4786,4786,4786,4786,4786,4786,4786,4786,4786,4786,4786,4786,4786,4786,4786,4786,4786,4786,4786,4786,4786,4786,4786,
4786,4786,4786,4786,4786,4786,4786,4786,4786,4786,4786,4786,4786,4786,4786,4786,4786,4786,4786,4786,4786,4786,4786,4786,4786,4786,4786,4786,4786,4786,
4786,4786,4786,4786,4786,4786,4786,4786,4786,4786,4786,4786,4786,4786,4786,4786,4786,4786,4786,4786,4786,4786,4786,4786,4786,4786,4786,4786,4786,4786,
4786,4786,4786,4786,4786,4786,4786,4786,4786,4786,4786,4786,4786,4786,4786,4786,4786,4786,4786,4786,4786,4786,4786,4786,4786,4786,4786,4786,4786,4786,
4786,4786,4786,4786,4786,4786,4786,4786,4786,4786,4786,4786,4786,4786,4786,4786,4786,4786,4786,4786,4786,4786,4786,4786,4786,4786,4786,4786,4786,4786,
4786,4786,4786,4786,4786,4786,4786,4786,4786,4786,4786,4786,4786,4786,4786,4786,4786,4786,4786,4786,4786,4786,4786,4786,4786,4786,4786,4786,4786,4786,
4786,4786,4786,4786,4786,4786,4786,4786,4786,4786,4786,4786,4786,4786,4786,4786,4786,4786,4786,4786,4786,4786,4786,4786,4786,4786,4786,4786,4786,4786,
4786,4786,4786,4786,4786,4786,4786,4786,4786,4786,4786,4786,4786,4786,4786,4786,4786,4786,4786,4786,4786,4786,4786,4786,4786,4786,4786,4786,4786,4786,
4786,4786,4786,4786,4786,4786,4786,4786,4786,4786,4786,4786,4786,4786,4786,4786,4786,4786,4786,4786,4786,4786,4786,4786,4786,4786,4786,4786,4786,4786,
4786,4786,4786,4786,4786,4786,4786,4786,4786,4786,4786,4786,4786,4786,4786,4786,4786,4786,4786,4786,4786,4786,4786,4786,4786,4786,4786,4786,4786,4786
</data>
 </layer>
 <layer id="13" name="water_1" width="30" height="30">
  <data encoding="csv">
0,0,0,0,0,0,0,0,0,0,0,0,0,0,0,0,0,0,0,0,0,0,0,0,0,0,0,0,0,0,
0,0,0,0,0,0,0,0,0,0,0,0,0,0,0,0,0,0,0,0,0,0,0,0,0,0,0,0,0,0,
0,0,0,0,0,0,0,0,0,0,0,0,0,0,0,0,0,0,0,0,0,0,0,0,0,0,0,0,0,0,
0,0,0,0,0,0,0,0,0,0,0,0,0,0,0,0,0,0,0,0,0,0,0,0,0,0,0,0,0,0,
0,0,0,0,0,0,0,0,0,0,0,0,0,0,0,0,0,0,0,0,0,0,0,0,0,0,0,0,0,0,
0,0,0,0,0,0,0,0,11921,12081,11922,11923,0,0,0,0,0,0,0,0,0,0,0,0,0,0,0,0,0,0,
0,0,0,0,0,0,0,0,11999,12000,12000,12080,12081,11923,0,0,0,0,0,0,0,0,0,0,0,0,0,0,0,0,
0,0,0,0,0,11921,12081,12081,12082,12000,12000,12000,12000,12002,0,0,0,0,0,0,0,0,0,0,0,0,0,0,0,0,
0,0,0,0,0,11999,12000,12000,12000,12000,12000,12000,12000,12080,11923,0,0,0,0,0,0,0,0,0,0,0,0,0,0,0,
0,0,0,0,11921,12082,12000,12000,12000,12000,12000,12000,12000,12000,12002,0,0,0,0,0,0,0,0,0,0,0,0,0,0,0,
0,0,0,0,12004,12000,12000,12000,12000,12000,12000,12000,12000,12000,12080,11922,12081,12081,11922,11922,11922,12081,12081,11922,11922,11922,11923,0,0,0,
0,0,0,0,12004,12000,12000,12000,12000,12000,12000,12000,12000,12000,12000,12000,12000,12000,12000,12000,12000,12000,12000,12000,12000,11924,12079,0,0,0,
0,0,0,0,11999,12000,12000,12000,12000,12000,12000,12000,12000,12000,12000,12000,12000,12000,12000,12000,12000,12000,12000,12000,12000,12002,0,0,0,0,
0,0,0,0,12004,12000,12000,12000,12000,12000,12000,12000,12000,12000,12000,12000,12000,12000,12000,12000,12000,12000,12000,12000,12000,12001,0,0,0,0,
0,0,0,0,12077,11926,12000,12000,12000,12000,12000,12000,12000,12000,12000,12000,12000,12000,12000,12000,12000,12000,12000,12000,12000,12002,0,0,0,0,
0,0,0,0,0,12077,12078,11926,12000,12000,12000,12000,12000,12000,12000,12000,12000,12000,12000,12000,12000,12000,12000,12000,12000,12001,0,0,0,0,
0,0,0,0,0,0,0,11999,12000,12000,12000,12000,12000,12000,12000,12000,12000,12000,12000,12000,12000,12000,12000,12000,12000,12002,0,0,0,0,
0,0,0,0,11921,12081,11922,12082,12000,12000,12000,12000,12000,12000,12000,12000,12000,12000,12000,12000,12000,12000,12000,12000,12000,12001,0,0,0,0,
0,0,0,0,11999,12000,12000,12000,12000,12000,12000,12000,12000,12000,12000,12000,12000,12000,12000,12000,12000,12000,12000,12000,12000,12001,0,0,0,0,
0,0,0,0,12004,12000,12000,12000,12000,12000,12000,12000,12000,12000,12000,12000,12000,12000,12000,12000,12000,12000,12000,12000,12000,12002,0,0,0,0,
0,0,0,0,12004,12000,12000,12000,12000,12000,12000,12000,12000,12000,12000,12000,12000,12000,12000,12000,12000,12000,12000,12000,12000,12002,0,0,0,0,
0,0,0,0,11999,12000,12000,12000,12000,12000,12000,12000,12000,12000,12000,12000,12000,12000,12000,12000,12000,12000,12000,12000,11924,12079,0,0,0,0,
0,0,0,0,11999,12000,12000,12000,12000,12000,12000,12000,12000,12000,12000,12000,12000,12000,12000,12000,12000,12000,12000,11924,12079,0,0,0,0,0,
0,0,0,0,12077,12078,11926,12000,12000,12000,12000,12000,12000,12000,12000,12000,12000,12000,12000,12000,12000,12000,11924,12079,0,0,0,0,0,0,
0,0,0,0,0,0,12077,11926,12000,12000,12000,12000,12000,11924,12078,11926,12000,12000,12000,12000,12000,11924,12079,0,0,0,0,0,0,0,
0,0,0,0,0,0,0,12077,12078,12078,12078,11925,11925,12079,0,12077,11925,11926,11924,11925,12078,12079,0,0,0,0,0,0,0,0,
0,0,0,0,0,0,0,0,0,0,0,0,0,0,0,0,0,12077,12079,0,0,0,0,0,0,0,0,0,0,0,
0,0,0,0,0,0,0,0,0,0,0,0,0,0,0,0,0,0,0,0,0,0,0,0,0,0,0,0,0,0,
0,0,0,0,0,0,0,0,0,0,0,0,0,0,0,0,0,0,0,0,0,0,0,0,0,0,0,0,0,0,
0,0,0,0,0,0,0,0,0,0,0,0,0,0,0,0,0,0,0,0,0,0,0,0,0,0,0,0,0,0
</data>
 </layer>
 <layer id="15" name="rapids_1" width="30" height="30">
  <data encoding="csv">
0,0,0,0,0,0,0,0,0,0,0,0,0,0,0,0,0,0,0,0,0,0,0,0,0,0,0,0,0,0,
0,0,0,0,0,0,0,0,0,0,0,0,0,0,0,0,0,0,0,0,0,0,0,0,0,0,0,0,0,0,
0,0,0,0,0,0,0,0,0,0,0,0,0,0,0,0,0,0,0,0,0,0,0,0,0,0,0,0,0,0,
0,0,0,0,0,0,0,0,0,0,0,0,0,0,0,0,0,0,0,0,0,0,0,0,0,0,0,0,0,0,
0,0,0,0,0,0,0,0,0,0,0,0,0,0,0,0,0,0,0,0,0,0,0,0,0,0,0,0,0,0,
0,0,0,0,0,0,0,0,0,0,0,0,0,0,0,0,0,0,0,0,0,0,0,0,0,0,0,0,0,0,
0,0,0,0,0,0,0,0,0,0,0,0,0,0,0,0,0,0,0,0,0,0,0,0,0,0,0,0,0,0,
0,0,0,0,0,0,0,0,0,0,0,0,0,0,0,0,0,0,0,0,0,0,0,0,0,0,0,0,0,0,
0,0,0,0,0,0,12088,12088,12106,12106,12106,12106,0,0,0,0,0,0,0,0,0,0,0,0,0,0,0,0,0,0,
0,0,0,0,0,0,12244,12244,12184,12184,12184,12184,0,0,0,0,0,0,0,0,0,0,0,0,0,0,0,0,0,0,
0,0,0,0,0,12106,0,0,12262,12262,12262,12262,12106,12340,0,0,0,0,0,0,0,0,0,0,0,0,0,0,0,0,
0,0,0,0,0,12184,12088,12088,11933,11932,11934,0,12184,12010,12011,12012,12010,12011,12010,12011,0,0,0,12059,12106,0,0,0,0,0,
0,0,0,0,0,12262,12088,12088,11933,11932,11934,0,12262,12010,12011,12012,12340,12340,12322,12322,0,0,0,12059,12184,0,0,0,0,0,
0,0,0,0,0,12059,12166,12166,0,0,0,12059,12106,11933,11932,11934,0,0,12010,12011,12012,12010,12011,12012,12106,0,0,0,0,0,
0,0,0,0,0,0,12244,12244,12106,0,0,12106,11981,11933,11932,11934,0,0,12010,12011,12012,12010,12011,12012,12184,0,0,0,0,0,
0,0,0,0,0,0,0,0,12184,12088,12088,12184,12262,11981,12010,12011,12012,0,11981,12010,12011,12012,12012,12012,12106,0,0,0,0,0,
0,0,0,0,0,0,0,0,12262,12166,12166,12262,12106,12166,0,12059,12106,12106,12166,12322,12322,0,0,0,12184,0,0,0,0,0,
0,0,0,0,0,0,0,0,12340,12244,12244,12106,12106,12244,0,12059,12184,12184,12244,11932,11934,0,0,12088,12106,0,0,0,0,0,
0,0,0,0,0,12106,11933,11932,11934,12088,12088,12184,12184,12088,12088,12244,12262,12106,11933,11932,11934,0,0,12166,12184,0,0,0,0,0,
0,0,0,0,0,12184,12106,12340,0,11981,12166,12262,12262,12166,12166,12166,12262,12184,11933,11934,0,0,12059,12244,12262,0,0,0,0,0,
0,0,0,0,0,12262,12184,12340,0,12244,12244,11932,12340,12244,12244,12340,11932,11934,0,0,0,12059,12322,12340,11981,0,0,0,0,0,
0,0,0,0,0,12184,12059,12106,11934,0,11933,11932,11934,0,0,0,12010,12011,12012,12011,12012,12244,12340,11981,0,0,0,0,0,0,
0,0,0,0,0,12262,12059,12184,0,0,11933,11932,11934,0,0,0,12010,12011,12012,12010,12322,12340,11981,0,0,0,0,0,0,0,
0,0,0,0,0,0,0,12010,12011,12012,12010,12011,12012,0,0,0,12010,12011,12012,0,12340,11981,0,0,0,0,0,0,0,0,
0,0,0,0,0,0,0,0,12010,12011,12010,12011,12012,0,0,0,12340,11932,11934,11932,11934,0,0,0,0,0,0,0,0,0,
0,0,0,0,0,0,0,0,0,0,0,0,0,0,0,0,0,0,0,0,0,0,0,0,0,0,0,0,0,0,
0,0,0,0,0,0,0,0,0,0,0,0,0,0,0,0,0,0,0,0,0,0,0,0,0,0,0,0,0,0,
0,0,0,0,0,0,0,0,0,0,0,0,0,0,0,0,0,0,0,0,0,0,0,0,0,0,0,0,0,0,
0,0,0,0,0,0,0,0,0,0,0,0,0,0,0,0,0,0,0,0,0,0,0,0,0,0,0,0,0,0,
0,0,0,0,0,0,0,0,0,0,0,0,0,0,0,0,0,0,0,0,0,0,0,0,0,0,0,0,0,0
</data>
 </layer>
 <layer id="19" name="path_1" width="30" height="30">
  <data encoding="csv">
0,0,0,0,0,0,0,0,0,0,0,0,0,0,0,0,0,0,0,0,0,0,0,0,0,0,0,0,0,0,
0,0,0,0,0,0,0,0,0,0,0,0,0,0,0,0,0,0,0,0,0,0,0,0,0,0,0,0,0,0,
0,0,0,0,0,0,0,0,0,0,0,0,0,0,0,0,0,0,0,0,0,0,0,0,0,0,0,0,0,0,
0,0,0,0,0,0,0,0,0,0,0,0,0,0,0,0,0,0,0,0,0,0,0,0,0,0,0,0,0,0,
0,0,0,0,4777,4778,4779,0,0,0,0,0,0,0,0,0,0,0,0,0,0,0,0,0,0,0,0,0,0,0,
0,0,0,0,4793,4796,4811,0,0,0,0,0,0,0,0,0,0,0,0,0,0,0,0,0,0,0,0,0,0,0,
0,0,0,0,4809,4811,0,0,0,0,0,0,0,0,0,0,0,0,0,0,0,0,0,0,0,0,0,0,0,0,
0,0,0,0,0,0,0,0,0,0,0,0,0,0,0,0,0,0,0,0,0,0,0,0,0,0,0,0,0,0,
0,0,0,0,0,0,0,0,0,0,0,0,0,0,0,0,0,0,0,0,0,0,0,0,0,0,0,0,0,0,
0,0,0,0,0,0,0,0,0,0,0,0,0,0,0,0,0,0,0,0,0,0,0,0,0,0,0,0,0,0,
0,0,0,0,0,0,0,0,0,0,0,0,0,0,0,0,0,0,0,0,0,0,0,0,0,0,0,0,0,0,
0,0,0,0,0,0,0,0,0,0,0,0,0,0,0,0,0,0,0,0,0,0,0,0,0,0,0,0,0,0,
0,0,0,0,0,0,0,0,0,0,0,0,0,0,0,0,0,0,0,0,0,0,0,0,0,0,0,0,0,0,
0,0,0,0,0,0,0,0,0,0,0,0,0,0,0,0,0,0,0,0,0,0,0,0,0,0,0,0,0,0,
0,0,0,0,0,0,0,0,0,0,0,0,0,0,0,0,0,0,0,0,0,0,0,0,0,0,0,0,0,0,
0,0,0,0,0,0,0,0,0,0,0,0,0,0,0,0,0,0,0,0,0,0,0,0,0,0,0,0,0,0,
0,0,0,0,0,0,0,0,0,0,0,0,0,0,0,0,0,0,0,0,0,0,0,0,0,0,0,0,0,0,
0,0,0,0,0,0,0,0,0,0,0,0,0,0,0,0,0,0,0,0,0,0,0,0,0,0,0,0,0,0,
0,0,0,0,0,0,0,0,0,0,0,0,0,0,0,0,0,0,0,0,0,0,0,0,0,0,0,0,0,0,
0,0,0,0,0,0,0,0,0,0,0,0,0,0,0,0,0,0,0,0,0,0,0,0,0,0,0,0,0,0,
0,0,0,0,0,0,0,0,0,0,0,0,0,0,0,0,0,0,0,0,0,0,0,0,0,0,0,0,0,0,
0,0,0,0,0,0,0,0,0,0,0,0,0,0,0,0,0,0,0,0,0,0,0,0,0,0,0,0,0,0,
0,0,0,0,0,0,0,0,0,0,0,0,0,0,0,0,0,0,0,0,0,0,0,0,0,0,0,0,0,0,
0,0,0,0,0,0,0,0,0,0,0,0,0,0,0,0,0,0,0,0,0,0,0,0,0,0,0,0,0,0,
0,0,0,0,0,0,0,0,0,0,0,0,0,0,0,0,0,0,0,0,0,0,0,0,0,0,0,0,0,0,
0,0,0,0,0,0,0,0,0,0,0,0,0,0,0,0,0,0,0,0,0,0,0,0,0,0,0,0,0,0,
0,0,0,0,0,0,0,0,0,0,0,0,0,0,0,0,0,0,0,0,0,0,0,0,0,0,0,0,0,0,
0,0,0,0,0,0,0,0,0,0,0,0,0,0,0,0,0,0,0,0,0,0,0,0,0,0,0,0,0,0,
0,0,0,0,0,0,0,0,0,0,0,0,0,0,0,0,0,0,0,0,0,0,0,0,0,0,0,0,0,0,
0,0,0,0,0,0,0,0,0,0,0,0,0,0,0,0,0,0,0,0,0,0,0,0,0,0,0,0,0,0
</data>
 </layer>
 <layer id="12" name="floor1_1" width="30" height="30">
  <data encoding="csv">
0,0,0,0,0,0,0,0,0,0,0,0,0,0,0,0,0,0,0,0,0,0,0,0,0,0,0,0,0,0,
0,0,0,0,0,0,0,0,0,0,0,0,0,0,0,0,0,0,0,0,0,0,0,0,0,0,0,0,0,0,
0,0,0,0,0,0,0,0,0,0,0,0,0,0,0,0,0,0,0,0,0,0,0,0,0,0,0,0,0,0,
0,0,0,0,0,0,0,0,0,0,0,0,0,0,0,0,0,0,0,0,0,0,0,0,0,0,0,0,0,0,
0,0,0,4786,4772,4802,4802,4802,4802,4802,4802,4802,4773,4786,4786,4786,4786,4786,0,0,0,0,0,0,0,0,4859,4769,4771,0,
0,0,0,4786,4787,0,0,0,0,0,0,0,4801,4802,4773,4786,4786,4786,4786,0,0,0,0,0,0,0,4769,4789,4787,0,
0,0,0,4786,4787,0,0,0,0,0,0,0,0,0,4785,4786,4786,4786,4786,4786,4786,4787,0,0,0,0,4785,4772,4803,0,
0,0,0,4786,4787,0,0,0,0,0,0,0,0,0,4801,4773,4786,4786,4786,4786,4786,4787,0,0,0,0,4785,4786,0,0,
0,0,0,4772,4803,0,0,0,0,0,0,0,0,0,0,4785,4786,4786,4786,4786,4786,4788,4770,4770,4770,4770,4789,4786,0,0,
0,0,0,4787,0,0,0,0,0,0,0,0,0,0,0,4801,4802,4802,4802,4802,4802,4802,4802,4802,4802,4802,4802,4773,0,0,
0,0,0,4787,0,0,0,0,0,0,0,0,0,0,0,0,0,0,0,0,0,0,0,0,0,0,0,4785,0,0,
0,0,0,4787,0,0,0,0,0,0,0,0,0,0,0,0,0,0,0,0,0,0,0,0,0,0,4769,4789,0,0,
0,0,0,4787,0,0,0,0,0,0,0,0,0,0,0,0,0,0,0,0,0,0,0,0,0,0,4785,4786,0,0,
0,0,0,4787,0,0,0,0,0,0,0,0,0,0,0,0,0,0,0,0,0,0,0,0,0,0,4785,4786,0,0,
0,0,0,4788,4771,0,0,0,0,0,0,0,0,0,0,0,0,0,0,0,0,0,0,0,0,0,4785,4786,0,0,
0,0,0,4786,4788,4770,4771,0,0,0,0,0,0,0,0,0,0,0,0,0,0,0,0,0,0,0,4785,4786,0,0,
0,0,0,4772,4802,4802,4803,0,0,0,0,0,0,0,0,0,0,0,0,0,0,0,0,0,0,0,4785,4786,0,0,
0,0,0,4787,0,0,0,0,0,0,0,0,0,0,0,0,0,0,0,0,0,0,0,0,0,0,4785,4786,0,0,
0,0,0,4787,0,0,0,0,0,0,0,0,0,0,0,0,0,0,0,0,0,0,0,0,0,0,4785,4786,0,0,
0,0,0,4787,0,0,0,0,0,0,0,0,0,0,0,0,0,0,0,0,0,0,0,0,0,0,4785,4786,0,0,
0,0,0,4787,0,0,0,0,0,0,0,0,0,0,0,0,0,0,0,0,0,0,0,0,0,0,4785,4786,0,0,
0,0,0,4787,0,0,0,0,0,0,0,0,0,0,0,0,0,0,0,0,0,0,0,0,0,4769,4789,4786,0,0,
0,0,0,4787,0,0,0,0,0,0,0,0,0,0,0,0,0,0,0,0,0,0,0,0,4769,4789,4786,4786,0,0,
0,0,0,4787,0,0,0,0,0,0,0,0,0,0,0,0,0,0,0,0,0,0,0,4769,4789,4786,4786,4786,0,0,
0,0,0,4788,4771,0,0,0,0,0,0,0,0,0,0,0,0,0,0,0,0,0,0,4785,4786,4786,4786,4786,0,0,
0,0,0,4786,4788,4770,4770,4770,4770,4770,4770,4770,4771,0,0,0,0,0,0,4769,4770,4770,4770,4789,4786,4786,4786,4786,0,0,
0,0,0,4773,4786,4786,4786,4786,4786,4786,4786,4786,4788,4770,0,4770,4770,4770,4770,4789,4786,4786,4786,4786,4786,4786,4786,4786,0,0,
0,0,0,4785,4786,4786,4786,4786,4786,4786,4786,4786,4786,4786,4786,4786,4786,4786,4786,4786,4786,4786,4786,4786,4786,4786,4786,4786,0,0,
0,0,0,4801,4802,4802,4802,4802,4802,4802,4802,4802,4802,4802,4802,4802,4802,4802,4802,4802,4802,4802,4802,4802,4773,4786,4786,4772,0,0,
0,0,0,0,0,0,0,0,0,0,0,0,0,0,0,0,0,0,0,0,0,0,0,0,0,0,0,0,0,0
</data>
 </layer>
 <layer id="9" name="wall_1" width="30" height="30">
  <data encoding="csv">
4786,4786,4786,4786,4786,4786,4786,4786,4786,4786,4786,4786,4786,4786,4786,4786,4786,4786,4786,4786,4786,4786,4786,4786,4786,4786,4786,4786,4786,4786,
4786,4786,4786,4786,4786,4786,4786,4786,4786,4786,4786,4786,4786,4786,4786,4786,4786,4786,4786,4786,4786,4786,4786,4786,4786,4786,4786,4786,4786,4786,
4786,4786,4786,4786,4786,4786,4786,4786,4786,4786,4786,4786,4786,4786,4786,4786,4786,4786,4786,4786,11921,11922,12081,11923,4786,0,4786,4786,4786,4786,
4786,4786,4786,4772,4802,4802,4802,4802,4802,4802,4802,4802,4802,4773,4786,4786,4786,4786,4786,11921,12082,12000,12000,12080,11922,11923,4786,4786,4786,4786,
4786,4786,4772,4803,0,0,0,0,0,0,0,0,0,4801,4802,4773,4786,4786,4786,12004,12000,12000,12000,12000,11924,12079,4786,4786,4786,4786,
4786,4786,4787,0,0,0,0,0,0,0,0,0,0,0,0,4785,4786,4786,4786,12004,11924,11925,12078,11926,12001,0,4786,4786,4786,4786,
4786,4786,4787,0,0,0,0,0,0,0,0,0,0,0,0,4801,4773,4786,4786,12077,12079,4804,4786,12077,12079,4786,4786,4786,4786,4786,
4786,4786,4787,0,0,0,0,0,0,0,0,0,0,0,0,0,4785,4786,4786,4786,4786,4786,4786,4786,4786,4786,4786,4786,4786,4786,
4786,4786,4787,0,0,0,0,0,0,0,0,0,0,0,0,0,4801,4802,4802,4802,4802,4802,4802,4802,4802,4802,4802,4802,4773,4786,
4786,4786,4787,0,0,0,0,0,0,0,0,0,0,0,0,0,0,0,0,0,0,0,0,0,0,0,0,0,4785,4786,
4786,4786,4787,0,0,0,0,0,0,0,0,0,0,0,0,0,0,0,0,0,0,0,0,0,0,0,0,0,4785,4786,
4786,4786,4787,0,0,0,0,0,0,0,0,0,0,0,0,0,0,0,0,0,0,0,0,0,0,0,0,0,4785,4786,
4786,4786,4787,0,0,0,0,0,0,0,0,0,0,0,0,0,0,0,0,0,0,0,0,0,0,0,0,4769,4789,4786,
4786,4786,4787,0,0,0,0,0,0,0,0,0,0,0,0,0,0,0,0,0,0,0,0,0,0,0,0,4785,4786,4786,
4786,4786,4787,0,0,0,0,0,0,0,0,0,0,0,0,0,0,0,0,0,0,0,0,0,0,0,0,4785,4786,4786,
4786,4786,4787,0,0,0,0,0,0,0,0,0,0,0,0,0,0,0,0,0,0,0,0,0,0,0,0,4785,4786,4786,
4786,4786,4787,0,0,0,0,0,0,0,0,0,0,0,0,0,0,0,0,0,0,0,0,0,0,0,0,4785,4786,4786,
4786,4786,4787,0,0,0,0,0,0,0,0,0,0,0,0,0,0,0,0,0,0,0,0,0,0,0,0,4801,4773,4786,
4786,4786,4787,0,0,0,0,0,0,0,0,0,0,0,0,0,0,0,0,0,0,0,0,0,0,0,0,0,4785,4786,
4786,4786,4787,0,0,0,0,0,0,0,0,0,0,0,0,0,0,0,0,0,0,0,0,0,0,0,0,0,4785,4786,
4786,4786,4787,0,0,0,0,0,0,0,0,0,0,0,0,0,0,0,0,0,0,0,0,0,0,0,0,0,4785,4786,
4786,4786,4787,0,0,0,0,0,0,0,0,0,0,0,0,0,0,0,0,0,0,0,0,0,0,0,0,4769,4789,4786,
4786,4786,4787,0,0,0,0,0,0,0,0,0,0,0,0,0,0,0,0,0,0,0,0,0,0,0,4769,4789,4786,4786,
4786,4786,4787,0,0,0,0,0,0,0,0,0,0,0,0,0,0,0,0,0,0,0,0,0,0,4769,4789,4786,4786,4786,
4786,4786,4787,0,0,0,0,0,0,0,0,0,0,0,0,0,0,0,0,0,0,0,0,0,4769,4789,4786,4786,4786,4786,
4786,4786,4788,4770,4770,4771,0,0,0,0,0,0,0,0,0,0,0,0,0,0,0,0,0,0,4801,4802,4773,4786,4786,4786,
4786,4786,4786,4786,4786,4788,4770,4770,4770,4770,4770,4770,4770,4770,0,4770,4770,4770,4770,4770,4770,4770,4770,4770,4770,4770,4789,4786,4786,4786,
4786,4786,4786,4786,4786,4786,4786,4786,4786,4786,4786,4786,4786,4786,4786,4786,4786,4786,4786,4786,4786,4786,4786,4786,4786,4786,4786,4786,4786,4786,
4786,4786,4786,4786,4786,4786,4786,4786,4786,4786,4786,4786,4786,4786,4786,4786,4786,4786,4786,4786,4786,4786,4786,4786,4786,4786,4786,4786,4786,4786,
4786,4786,4786,4786,4786,4786,4786,4786,4786,4786,4786,4786,4786,4786,4786,4786,4786,4786,4786,4786,4786,4786,4786,4786,4786,4786,4786,4786,4786,4786
</data>
 </layer>
 <layer id="16" name="wall_2" width="30" height="30">
  <data encoding="csv">
4882,4882,4882,4882,4882,4882,4882,4882,4882,4882,4882,4882,4882,4882,4882,4882,4882,4882,4882,4882,4882,4882,4882,4882,4882,4882,4882,4882,4882,4882,
4882,4882,4882,4882,4882,4882,4882,4882,4882,4882,4882,4882,4882,4882,4882,4882,4884,4898,4885,4884,4898,4898,4898,4898,4885,4884,4898,4885,4882,4882,
4882,4882,4884,4898,4898,4898,4898,4898,4898,4898,4898,4898,4898,4898,4885,4882,4900,4867,4897,4899,0,0,0,0,4897,4899,4865,4901,4882,4882,
4882,4884,4899,0,0,0,0,0,0,0,0,0,0,0,4897,4898,4885,4883,0,0,0,0,0,0,0,0,4881,4882,4882,4882,
4884,4899,0,0,0,0,0,0,0,0,0,0,0,0,0,0,4881,4900,4867,0,0,0,0,0,0,4865,4901,4882,4882,4882,
4900,4867,0,0,0,0,0,0,0,0,0,0,0,0,0,0,4897,4885,4883,0,0,0,0,0,0,4881,4882,4882,4882,4882,
4882,4883,0,0,0,0,0,0,0,0,0,0,0,0,0,0,0,4881,4900,4867,0,0,0,0,4865,4901,4882,4882,4882,4882,
4882,4883,0,0,0,0,0,0,0,0,0,0,0,0,0,0,0,4897,4898,4899,0,0,0,0,4897,4898,4898,4898,4898,4885,
4882,4883,0,0,0,0,0,0,0,0,0,0,0,0,0,0,0,0,0,0,0,0,0,0,0,0,0,0,0,4881,
4882,4883,0,0,0,0,0,0,0,0,0,0,0,0,0,0,0,0,0,0,0,0,0,0,0,0,0,0,0,4881,
4882,4883,0,0,0,0,0,0,0,0,0,0,0,0,0,0,0,0,0,0,0,0,0,0,0,0,0,0,0,4881,
4882,4883,0,0,0,0,0,0,0,0,0,0,0,0,0,0,0,0,0,0,0,0,0,0,0,0,0,0,0,4881,
4882,4900,4867,0,0,0,0,0,0,0,0,0,0,0,0,0,0,0,0,0,0,0,0,0,0,0,0,0,0,4881,
4882,4882,4883,0,0,0,0,0,0,0,0,0,0,0,0,0,0,0,0,0,0,0,0,0,0,0,0,0,4865,4901,
4882,4882,4883,0,0,0,0,0,0,0,0,0,0,0,0,0,0,0,0,0,0,0,0,0,0,0,0,0,4881,4884,
4882,4884,4899,0,0,0,0,0,0,0,0,0,0,0,0,0,0,0,0,0,0,0,0,0,0,0,0,0,4881,4900,
4884,4899,0,0,0,0,0,0,0,0,0,0,0,0,0,0,0,0,0,0,0,0,0,0,0,0,0,0,4897,4885,
4883,0,0,0,0,0,0,0,0,0,0,0,0,0,0,0,0,0,0,0,0,0,0,0,0,0,0,0,0,4881,
4883,0,0,0,0,0,0,0,0,0,0,0,0,0,0,0,0,0,0,0,0,0,0,0,0,0,0,0,0,4881,
4883,0,0,0,0,0,0,0,0,0,0,0,0,0,0,0,0,0,0,0,0,0,0,0,0,0,0,0,0,4881,
4883,0,0,0,0,0,0,0,0,0,0,0,0,0,0,0,0,0,0,0,0,0,0,0,0,0,0,0,0,4881,
4900,4867,0,0,0,0,0,0,0,0,0,0,0,0,0,0,0,0,0,0,0,0,0,0,0,0,0,0,0,4881,
4882,4883,0,0,0,0,0,0,0,0,0,0,0,0,0,0,0,0,0,0,0,0,0,0,0,0,0,0,4865,4901,
4882,4883,0,0,0,0,0,0,0,0,0,0,0,0,0,0,0,0,0,0,0,0,0,0,0,0,0,4865,4901,4882,
4882,4883,0,0,0,0,0,0,0,0,0,0,0,0,0,0,0,0,0,0,0,0,0,0,0,0,0,4881,4882,4882,
4882,4883,0,0,0,0,0,0,0,0,0,0,0,0,0,0,0,0,0,0,0,0,0,0,0,0,0,4881,4882,4882,
4882,4900,4866,4866,4867,0,0,4865,4866,4866,4866,4866,4866,4866,0,4867,4865,4866,4867,0,4865,4866,4866,4866,4866,4866,4866,4901,4882,4882,
4882,4882,4882,4882,4900,4866,4866,4901,4882,4882,4882,4882,4882,4882,4882,4900,4901,4882,4900,4866,4901,4882,4882,4882,4882,4882,4882,4882,4882,4882,
4882,4882,4882,4882,4882,4882,4882,4882,4882,4882,4882,4882,4882,4882,4882,4882,4882,4882,4882,4882,4882,4882,4882,4882,4882,4882,4882,4882,4882,4882,
4882,4882,4882,4882,4882,4882,4882,4882,4882,4882,4882,4882,4882,4882,4882,4882,4882,4882,4882,4882,4882,4882,4882,4882,4882,4882,4882,4882,4882,4882
</data>
 </layer>
 <layer id="17" name="decoration_1" width="30" height="30">
  <data encoding="csv">
0,0,0,0,0,0,0,0,0,0,0,0,0,0,0,0,0,0,0,0,0,0,0,0,0,0,0,0,0,0,
0,0,0,0,0,0,0,0,0,0,0,0,0,0,0,0,0,0,0,0,0,0,0,0,0,0,0,0,0,0,
0,0,0,0,0,0,0,0,0,0,0,0,0,0,0,0,0,0,0,0,0,0,0,0,0,0,0,0,0,0,
0,0,0,0,0,0,0,0,0,0,0,0,0,0,0,0,0,0,4951,0,0,0,0,0,0,0,0,0,0,0,
0,0,0,0,0,0,0,0,0,0,0,0,0,0,0,0,0,0,0,0,0,0,0,0,0,0,0,0,0,0,
0,0,0,4804,0,0,0,4804,0,0,0,0,0,0,0,0,0,0,0,0,0,0,0,0,0,0,0,0,0,0,
0,0,0,0,0,4951,0,0,0,0,0,0,0,0,0,0,0,0,0,0,0,0,0,4952,0,0,0,0,0,0,
0,0,0,5032,0,0,0,0,0,0,0,0,0,0,0,0,0,0,0,0,5032,0,0,4804,0,0,0,0,0,0,
0,0,0,0,0,0,0,0,0,0,0,0,0,0,0,0,0,0,0,0,0,0,0,0,0,0,0,0,0,0,
0,0,0,0,0,0,0,0,0,0,0,0,0,0,0,0,0,0,0,0,0,0,0,0,0,0,0,0,0,0,
0,0,0,0,0,0,0,0,0,0,0,0,0,0,0,0,0,0,0,0,0,0,0,0,0,0,0,0,0,0,
0,0,0,0,0,0,0,0,0,0,0,0,0,0,0,0,0,0,0,0,0,0,0,0,0,0,0,5032,0,0,
0,0,0,0,0,0,0,0,0,0,0,0,0,0,0,0,0,0,0,0,0,0,0,0,0,0,0,0,0,0,
0,0,0,0,0,0,0,0,0,0,0,0,0,0,0,0,0,0,0,0,0,0,0,0,0,0,0,0,0,0,
0,0,0,0,0,0,0,0,0,0,0,0,0,0,0,0,0,0,0,0,0,0,0,0,0,0,0,0,0,0,
0,0,0,5032,0,0,0,0,0,0,0,0,0,0,0,0,0,0,0,0,0,0,0,0,0,0,0,0,0,0,
0,0,0,0,0,0,0,0,0,0,0,0,0,0,0,0,0,0,0,0,0,0,0,0,0,0,0,0,0,0,
0,0,0,0,0,0,0,0,0,0,0,0,0,0,0,0,0,0,0,0,0,0,0,0,0,0,0,0,0,0,
0,0,0,0,0,0,0,0,0,0,0,0,0,0,0,0,0,0,0,0,0,0,0,0,0,0,0,0,0,0,
0,5032,0,0,0,0,0,0,0,0,0,0,0,0,0,0,0,0,0,0,0,0,0,0,0,0,0,0,0,0,
0,4804,0,0,0,0,0,0,0,0,0,0,0,0,0,0,0,0,0,0,0,0,0,0,0,0,0,0,0,0,
0,0,0,0,0,0,0,0,0,0,0,0,0,0,0,0,0,0,0,0,0,0,0,0,0,0,4951,0,0,0,
0,0,0,0,0,0,0,0,0,0,0,0,0,0,0,0,0,0,0,0,0,0,0,0,0,0,0,0,0,0,
0,0,0,0,0,0,0,0,0,0,0,0,0,0,0,0,0,0,0,0,0,0,0,0,0,0,0,0,0,0,
0,0,0,4952,0,4804,0,0,0,0,0,0,0,0,0,0,0,0,0,0,0,0,4951,0,0,0,4950,0,0,0,
0,0,4950,0,0,0,0,0,0,4951,0,0,0,0,4804,0,0,0,0,0,0,0,0,5032,0,0,0,0,0,0,
0,0,0,0,0,0,0,0,0,0,0,0,0,0,0,0,0,0,0,0,0,0,0,0,0,0,0,0,0,0,
0,0,0,0,0,0,0,0,0,0,0,0,0,0,0,0,0,0,0,0,0,0,0,0,0,0,0,0,0,0,
0,0,0,0,0,0,0,0,0,0,0,0,0,0,0,0,0,0,0,0,0,0,0,0,0,0,0,0,0,0,
0,0,0,0,0,0,0,0,0,0,0,0,0,0,0,0,0,0,0,0,0,0,0,0,0,0,0,0,0,0
</data>
 </layer>
 <layer id="14" name="stairs_1" width="30" height="30">
  <data encoding="csv">
0,0,0,0,0,0,0,0,0,0,0,0,0,0,0,0,0,0,0,0,0,0,0,0,0,0,0,0,0,0,
0,0,0,0,0,0,0,0,0,0,0,0,0,0,0,0,0,0,0,0,0,0,0,0,0,0,0,0,0,0,
0,0,0,0,0,0,0,0,0,0,0,0,0,0,0,0,0,0,0,0,0,0,0,0,0,0,0,0,0,0,
0,0,0,0,0,0,0,0,0,0,0,0,0,0,0,0,0,0,0,0,0,0,0,0,0,0,0,0,0,0,
0,0,0,0,0,0,0,0,0,0,0,0,0,0,0,0,0,0,0,0,0,0,0,0,0,0,0,0,0,0,
0,0,0,0,0,0,0,0,0,0,0,0,0,0,0,0,0,0,0,0,0,0,0,0,0,0,0,0,0,0,
0,0,0,0,0,0,0,0,0,0,0,0,0,0,0,0,0,0,0,0,0,0,0,0,0,0,0,0,0,0,
0,0,0,0,0,0,0,0,0,0,0,0,0,0,0,0,0,0,0,0,3057,3058,3058,3059,0,0,0,0,0,0,
0,0,0,0,0,0,0,0,0,0,0,0,0,0,0,0,0,0,0,0,3073,3074,3074,3075,0,0,0,0,0,0,
0,0,0,0,0,0,0,0,0,0,0,0,0,0,0,0,0,0,0,0,3073,3074,3074,3075,0,0,0,0,0,0,
0,0,0,0,0,0,0,0,0,0,0,0,0,0,0,0,0,0,0,0,3089,3090,3090,3091,0,0,0,0,0,0,
0,0,0,0,0,0,0,0,0,0,0,0,0,0,0,0,0,0,0,0,0,0,0,0,0,0,0,0,0,0,
0,0,0,0,0,0,0,0,0,0,0,0,0,0,0,0,0,0,0,0,0,0,0,0,0,0,0,0,0,0,
0,0,0,0,0,0,0,0,0,0,0,0,0,0,0,0,0,0,0,0,0,0,0,0,0,0,0,0,0,0,
0,0,0,0,0,0,0,0,0,0,0,0,0,0,0,0,0,0,0,0,0,0,0,0,0,0,0,0,0,0,
0,0,0,0,0,0,0,0,0,0,0,0,0,0,0,0,0,0,0,0,0,0,0,0,0,0,0,0,0,0,
0,0,0,0,0,0,0,0,0,0,0,0,0,0,0,0,0,0,0,0,0,0,0,0,0,0,0,0,0,0,
0,0,0,0,0,0,0,0,0,0,0,0,0,0,0,0,0,0,0,0,0,0,0,0,0,0,0,0,0,0,
0,0,0,0,0,0,0,0,0,0,0,0,0,0,0,0,0,0,0,0,0,0,0,0,0,0,0,0,0,0,
0,0,0,0,0,0,0,0,0,0,0,0,0,0,0,0,0,0,0,0,0,0,0,0,0,0,0,0,0,0,
0,0,0,0,0,0,0,0,0,0,0,0,0,0,0,0,0,0,0,0,0,0,0,0,0,0,0,0,0,0,
0,0,0,0,0,0,0,0,0,0,0,0,0,0,0,0,0,0,0,0,0,0,0,0,0,0,0,0,0,0,
0,0,0,0,0,0,0,0,0,0,0,0,0,0,0,0,0,0,0,0,0,0,0,0,0,0,0,0,0,0,
0,0,0,0,0,0,0,0,0,0,0,0,0,0,0,0,0,0,0,0,0,0,0,0,0,0,0,0,0,0,
0,0,0,0,0,0,0,0,0,0,0,0,0,0,0,0,0,0,0,0,0,0,0,0,0,0,0,0,0,0,
0,0,0,0,0,0,0,0,0,0,0,0,0,0,0,0,0,0,0,0,0,0,0,0,0,0,0,0,0,0,
0,0,0,0,0,0,0,0,0,0,0,0,0,0,0,0,0,0,0,0,0,0,0,0,0,0,0,0,0,0,
0,0,0,0,0,0,0,0,0,0,0,0,0,0,0,0,0,0,0,0,0,0,0,0,0,0,0,0,0,0,
0,0,0,0,0,0,0,0,0,0,0,0,0,0,0,0,0,0,0,0,0,0,0,0,0,0,0,0,0,0,
0,0,0,0,0,0,0,0,0,0,0,0,0,0,0,0,0,0,0,0,0,0,0,0,0,0,0,0,0,0
</data>
 </layer>
 <group id="3" name="z=0"/>
 <layer id="18" name="decoration_2" width="30" height="30">
  <data encoding="csv">
0,0,0,0,0,0,0,0,0,0,0,0,0,0,0,0,0,0,0,0,0,0,0,0,0,0,0,0,0,0,
0,0,0,0,0,0,0,0,0,0,0,0,0,0,0,0,0,0,0,0,0,0,0,0,0,0,0,0,0,0,
0,0,0,0,0,0,0,0,0,0,0,0,0,0,0,0,0,0,0,0,0,0,0,0,0,0,0,0,0,0,
0,0,0,0,0,0,0,0,0,0,0,0,0,0,0,0,0,0,0,0,0,0,0,0,0,0,0,0,0,0,
0,0,0,0,0,0,0,0,0,0,0,0,0,0,0,0,0,0,0,0,0,0,0,0,0,0,0,0,0,0,
0,0,0,0,0,0,0,0,0,0,0,0,0,0,0,0,0,0,0,0,0,0,0,0,0,0,0,0,0,0,
0,0,0,5016,0,0,0,0,0,0,0,0,0,0,0,0,0,0,0,0,5016,0,0,0,0,0,0,0,0,0,
0,0,0,0,0,0,0,0,0,0,0,0,0,0,0,0,0,0,0,0,0,0,0,0,0,0,0,0,0,0,
0,0,0,0,0,0,0,0,0,0,0,0,0,0,0,0,0,0,0,0,0,0,0,0,0,0,0,0,0,0,
0,0,0,0,0,0,0,0,0,0,0,0,0,0,0,0,0,0,0,0,0,0,0,0,0,0,0,0,0,0,
0,0,0,0,0,0,0,0,0,0,0,0,0,0,0,0,0,0,0,0,0,0,0,0,0,0,0,5016,0,0,
0,0,0,0,0,0,0,0,0,0,0,0,0,0,0,0,0,0,0,0,0,0,0,0,0,0,0,0,0,0,
0,0,0,0,0,0,0,0,0,0,0,0,0,0,0,0,0,0,0,0,0,0,0,0,0,0,0,0,0,0,
0,0,0,0,0,0,0,0,0,0,0,0,0,0,0,0,0,0,0,0,0,0,0,0,0,0,0,0,0,0,
0,0,0,5016,0,0,0,0,0,0,0,0,0,0,0,0,0,0,0,0,0,0,0,0,0,0,0,0,0,0,
0,0,0,0,0,0,0,0,0,0,0,0,0,0,0,0,0,0,0,0,0,0,0,0,0,0,0,0,0,0,
0,0,0,0,0,0,0,0,0,0,0,0,0,0,0,0,0,0,0,0,0,0,0,0,0,0,0,0,0,0,
0,0,0,0,0,0,0,0,0,0,0,0,0,0,0,0,0,0,0,0,0,0,0,0,0,0,0,0,0,0,
0,5016,0,0,0,0,0,0,0,0,0,0,0,0,0,0,0,0,0,0,0,0,0,0,0,0,0,0,0,0,
0,0,0,0,0,0,0,0,0,0,0,0,0,0,0,0,0,0,0,0,0,0,0,0,0,0,0,0,0,0,
0,0,0,0,0,0,0,0,0,0,0,0,0,0,0,0,0,0,0,0,0,0,0,0,0,0,0,0,0,0,
0,0,0,0,0,0,0,0,0,0,0,0,0,0,0,0,0,0,0,0,0,0,0,0,0,0,0,0,0,0,
0,0,0,0,0,0,0,0,0,0,0,0,0,0,0,0,0,0,0,0,0,0,0,0,0,0,0,0,0,0,
0,0,0,0,0,0,0,0,0,0,0,0,0,0,0,0,0,0,0,0,0,0,0,0,0,0,0,0,0,0,
0,0,0,0,0,0,0,0,0,0,0,0,0,0,0,0,0,0,0,0,0,0,0,5016,0,0,0,0,0,0,
0,0,0,0,0,0,0,0,0,0,0,0,0,0,0,0,0,0,0,0,0,0,0,0,0,0,0,0,0,0,
0,0,0,0,0,0,0,0,0,0,0,0,0,0,0,0,0,0,0,0,0,0,0,0,0,0,0,0,0,0,
0,0,0,0,0,0,0,0,0,0,0,0,0,0,0,0,0,0,0,0,0,0,0,0,0,0,0,0,0,0,
0,0,0,0,0,0,0,0,0,0,0,0,0,0,0,0,0,0,0,0,0,0,0,0,0,0,0,0,0,0,
0,0,0,0,0,0,0,0,0,0,0,0,0,0,0,0,0,0,0,0,0,0,0,0,0,0,0,0,0,0
</data>
 </layer>
 <group id="4" name="z=1"/>
 <layer id="10" name="ceil_3" width="30" height="30">
  <data encoding="csv">
4981,4978,4964,4994,4965,4978,4978,4978,4978,4978,4978,4978,4978,4978,4978,4978,4978,4978,4964,4994,4994,4994,4994,4994,4994,4965,4978,4978,4978,4979,
4978,4978,4979,0,4993,4994,4994,4994,4965,4978,4978,4978,4978,4978,4978,4978,4978,4978,4979,0,0,0,0,0,0,4993,4994,4965,4978,4980,
4978,4964,4995,0,0,0,0,0,4977,4978,4964,4994,4994,4994,4965,4978,4964,4994,4995,0,0,0,0,0,0,0,0,4993,4965,4978,
4978,4979,0,0,0,0,0,0,4993,4994,4995,0,0,0,4993,4994,4995,0,0,0,0,0,0,0,0,0,0,4961,4981,4978,
4978,4979,0,0,0,0,0,0,0,0,0,0,0,0,0,0,0,0,0,0,0,0,0,0,0,0,4961,4981,4978,4978,
4978,4979,0,0,0,0,0,0,0,0,0,0,0,0,0,0,0,0,0,0,0,0,0,0,0,0,4977,4978,4978,4964,
4978,4979,0,0,0,0,0,0,0,0,0,0,0,0,0,0,0,0,0,0,0,0,0,0,0,0,4993,4965,4978,4980,
4978,4979,0,0,0,0,0,0,0,0,0,0,0,0,0,0,0,0,0,0,0,0,0,0,0,0,0,4977,4978,4978,
4978,4980,4963,0,0,0,0,0,0,0,0,0,0,0,0,0,0,0,0,0,0,0,0,0,0,0,0,4993,4965,4978,
4978,4978,4979,0,0,0,0,0,0,0,0,0,0,0,0,0,0,0,0,0,0,0,0,0,0,0,0,0,4977,4978,
4965,4978,4979,0,0,0,0,0,0,0,0,0,0,0,0,0,0,0,0,0,0,0,0,0,0,0,0,0,4977,4978,
4977,4978,4979,0,0,0,0,0,0,0,0,0,0,0,0,0,0,0,0,0,0,0,0,0,0,0,0,0,4977,4978,
4977,4978,4979,0,0,0,0,0,0,0,0,0,0,0,0,0,0,0,0,0,0,0,0,0,0,0,0,4961,4981,4978,
4981,4978,4979,0,0,0,0,0,0,0,0,0,0,0,0,0,0,0,0,0,0,0,0,0,0,0,0,4977,4978,4964,
4978,4978,4979,0,0,0,0,0,0,0,0,0,0,0,0,0,0,0,0,0,0,0,0,0,0,0,0,4977,4978,4979,
4978,4964,4995,0,0,0,0,0,0,0,0,0,0,0,0,0,0,0,0,0,0,0,0,0,0,0,0,4977,4978,4979,
4978,4979,0,0,0,0,0,0,0,0,0,0,0,0,0,0,0,0,0,0,0,0,0,0,0,0,0,4977,4978,4979,
4964,4995,0,0,0,0,0,0,0,0,0,0,0,0,0,0,0,0,0,0,0,0,0,0,0,0,4961,4981,4978,4979,
4979,0,0,0,0,0,0,0,0,0,0,0,0,0,0,0,0,0,0,0,0,0,0,0,0,0,4977,4978,4978,4980,
4979,0,0,0,0,0,0,0,0,0,0,0,0,0,0,0,0,0,0,0,0,0,0,0,0,0,4977,4978,4978,4978,
4979,0,0,0,0,0,0,0,0,0,0,0,0,0,0,0,0,0,0,0,0,0,0,0,0,0,4993,4994,4965,4978,
4995,0,0,0,0,0,0,0,0,0,0,0,0,0,0,0,0,0,0,0,0,0,0,0,0,0,0,0,4977,4978,
4963,0,0,0,0,0,0,0,0,0,0,0,0,0,0,0,0,0,0,0,0,0,0,0,0,0,0,0,4977,4978,
4979,0,0,0,0,0,0,0,0,0,0,0,0,0,0,0,0,0,0,0,0,0,0,0,0,0,0,4961,4981,4978,
4979,0,0,0,0,0,0,0,0,0,0,0,0,0,0,0,0,0,0,0,0,0,0,0,0,0,0,4977,4978,4978,
4979,0,0,0,0,0,0,0,0,0,0,0,0,0,0,0,0,0,4961,4962,4962,4962,4963,0,0,0,4961,4981,4978,4978,
4979,0,0,0,0,0,0,0,0,0,0,0,4961,4870,4871,4872,4962,4962,4981,4978,4978,4978,4980,4962,4962,4962,4981,4978,4978,4978,
4980,4963,0,4961,4962,4962,4962,4962,4962,4962,4962,4962,4981,4978,4978,4978,4978,4978,4978,4978,4978,4978,4978,4978,4978,4978,4978,4978,4978,4978,
4978,4980,4962,4981,4978,4978,4978,4978,4978,4978,4978,4978,4978,4978,4978,4978,4978,4978,4978,4978,4978,4978,4978,4978,4978,4978,4978,4978,4978,4978,
4978,4978,4978,4978,4978,4978,4978,4978,4978,4978,4978,4978,4978,4978,4978,4978,4978,4978,4978,4978,4978,4978,4978,4978,4978,4978,4978,4978,4978,4964
</data>
 </layer>
 <layer id="11" name="ceildark_3" width="30" height="30">
  <data encoding="csv">
4983,4983,4996,4999,4999,4999,4997,4983,4983,4983,4983,4996,4999,4997,4983,4983,4996,4999,4999,4999,5000,0,0,0,4998,4999,4997,4983,4983,4983,
4983,4996,5000,0,0,0,4998,4999,4999,4999,4999,5000,0,4998,4999,4999,5000,0,0,0,0,0,0,0,0,0,4998,4999,4997,4983,
4983,4984,0,0,0,0,0,0,0,0,0,0,0,0,0,0,0,0,0,0,0,0,0,0,0,0,0,0,4982,4983,
4983,4984,0,0,0,0,0,0,0,0,0,0,0,0,0,0,0,0,0,0,0,0,0,0,0,0,0,0,4982,4983,
4983,4984,0,0,0,0,0,0,0,0,0,0,0,0,0,0,0,0,0,0,0,0,0,0,0,0,0,0,4982,4983,
4996,5000,0,0,0,0,0,0,0,0,0,0,0,0,0,0,0,0,0,0,0,0,0,0,0,0,0,0,4998,4997,
4984,0,0,0,0,0,0,0,0,0,0,0,0,0,0,0,0,0,0,0,0,0,0,0,0,0,0,0,0,4982,
4984,0,0,0,0,0,0,0,0,0,0,0,0,0,0,0,0,0,0,0,0,0,0,0,0,0,0,0,0,4982,
5012,4967,4968,0,0,0,0,0,0,0,0,0,0,0,0,0,0,0,0,0,0,0,0,0,0,0,0,0,0,4982,
4983,4983,4984,0,0,0,0,0,0,0,0,0,0,0,0,0,0,0,0,0,0,0,0,0,0,0,0,0,0,4982,
4983,4983,4984,0,0,0,0,0,0,0,0,0,0,0,0,0,0,0,0,0,0,0,0,0,0,0,0,0,0,4982,
4983,4996,5000,0,0,0,0,0,0,0,0,0,0,0,0,0,0,0,0,0,0,0,0,0,0,0,0,0,0,4982,
4983,4984,0,0,0,0,0,0,0,0,0,0,0,0,0,0,0,0,0,0,0,0,0,0,0,0,0,0,4966,5013,
4983,4984,0,0,0,0,0,0,0,0,0,0,0,0,0,0,0,0,0,0,0,0,0,0,0,0,0,0,4982,4983,
4983,4984,0,0,0,0,0,0,0,0,0,0,0,0,0,0,0,0,0,0,0,0,0,0,0,0,0,4966,5013,4983,
4999,5000,0,0,0,0,0,0,0,0,0,0,0,0,0,0,0,0,0,0,0,0,0,0,0,0,0,4982,4983,4983,
0,0,0,0,0,0,0,0,0,0,0,0,0,0,0,0,0,0,0,0,0,0,0,0,0,0,0,4982,4983,4983,
0,0,0,0,0,0,0,0,0,0,0,0,0,0,0,0,0,0,0,0,0,0,0,0,0,0,0,4982,4983,4983,
0,0,0,0,0,0,0,0,0,0,0,0,0,0,0,0,0,0,0,0,0,0,0,0,0,0,0,4998,4997,4983,
0,0,0,0,0,0,0,0,0,0,0,0,0,0,0,0,0,0,0,0,0,0,0,0,0,0,0,0,4982,4983,
4968,0,0,0,0,0,0,0,0,0,0,0,0,0,0,0,0,0,0,0,0,0,0,0,0,0,0,0,4982,4983,
4984,0,0,0,0,0,0,0,0,0,0,0,0,0,0,0,0,0,0,0,0,0,0,0,0,0,0,0,4982,4983,
4984,0,0,0,0,0,0,0,0,0,0,0,0,0,0,0,0,0,0,0,0,0,0,0,0,0,0,0,4982,4983,
4984,0,0,0,0,0,0,0,0,0,0,0,0,0,0,0,0,0,0,0,0,0,0,0,0,0,0,0,4982,4983,
4984,0,0,0,0,0,0,0,0,0,0,0,0,0,0,0,0,0,0,0,0,0,0,0,0,0,0,4966,5013,4983,
4984,0,0,0,0,0,0,0,0,0,0,0,0,0,0,0,0,0,0,0,0,0,0,0,0,0,4966,5013,4983,4983,
5012,4968,0,0,4966,4967,4967,4967,4968,0,0,0,0,0,0,0,0,0,0,0,0,0,0,0,4966,4967,5013,4983,4983,4983,
4983,4984,4966,4967,5013,4983,4983,4983,5012,4968,0,0,0,0,0,0,0,0,0,0,0,4966,4967,4967,5013,4983,4983,4983,4983,4983,
4983,5012,5013,4983,4983,4983,4983,4983,4983,5012,4967,4967,4967,4967,4967,4967,4967,4967,4967,4967,4967,5013,4983,4983,4983,4983,4983,4983,4983,4983,
4983,4983,4983,4983,4983,4983,4996,4997,4983,4983,4983,4983,4983,4983,4983,4983,4983,4983,4983,4983,4983,4983,4983,4983,4983,4983,4983,4983,4983,4983
</data>
 </layer>
 <group id="5" name="z=2"/>
 <layer id="6" name="passages" width="30" height="30" opacity="0.29">
  <data encoding="csv">
0,0,0,0,0,0,0,0,0,0,0,0,0,0,0,0,0,0,0,0,0,0,0,0,0,0,0,0,0,0,
0,0,0,0,0,0,0,0,0,0,0,0,0,0,0,0,0,0,0,13808,13808,13808,13808,13808,0,0,0,0,0,0,
0,0,0,0,0,0,0,0,0,0,0,0,0,0,0,0,0,0,13808,13808,0,0,0,0,13808,13808,13808,0,0,0,
0,0,0,0,0,0,0,0,0,0,0,0,0,0,0,0,0,0,13808,0,0,0,0,0,0,13808,13808,0,0,0,
0,0,0,0,13808,13808,13808,13808,13808,13808,13808,13808,13808,0,0,0,0,0,13808,0,0,0,0,0,13808,13808,13808,0,0,0,
0,0,0,0,13808,0,0,0,0,0,0,0,13808,13808,13808,0,0,0,13808,0,0,0,0,0,13808,0,0,0,0,0,
0,0,0,0,13808,13808,0,0,0,0,0,0,0,0,13808,0,0,0,13808,13808,0,0,0,13808,13808,0,0,0,0,0,
0,0,0,13808,13808,0,0,0,0,0,0,0,0,0,13808,13808,0,0,0,13808,13808,0,0,0,13808,0,0,0,0,0,
0,0,0,13808,13808,0,0,0,0,0,0,0,0,0,13808,13808,0,0,0,13808,13808,0,0,13808,13808,13808,13808,0,0,0,
0,0,0,13808,13808,0,0,0,0,0,0,0,0,0,13808,13808,13808,13808,13808,13808,13808,0,0,13808,13808,13808,13808,13808,0,0,
0,0,0,13808,13808,0,0,0,0,0,0,0,0,0,13808,13808,13808,13808,13808,13808,13808,0,0,13808,13808,13808,13808,0,0,0,
0,0,0,13808,13808,0,0,0,0,0,0,0,0,0,0,0,0,0,0,0,0,0,0,0,0,13808,13808,13808,0,0,
0,0,0,13808,13808,0,0,0,0,0,0,0,0,0,0,0,0,0,0,0,0,0,0,0,0,13808,0,0,0,0,
0,0,0,13808,13808,0,0,0,0,0,0,0,0,0,0,0,0,0,0,0,0,0,0,0,0,13808,0,0,0,0,
0,0,0,13808,13808,0,0,0,0,0,0,0,0,0,0,0,0,0,0,0,0,0,0,0,0,13808,0,0,0,0,
0,0,0,13808,13808,13808,13808,0,0,0,0,0,0,0,0,0,0,0,0,0,0,0,0,0,0,13808,0,0,0,0,
0,0,0,13808,13808,13808,13808,0,0,0,0,0,0,0,0,0,0,0,0,0,0,0,0,0,0,13808,13808,0,0,0,
0,0,0,13808,13808,0,0,0,0,0,0,0,0,0,0,0,0,0,0,0,0,0,0,0,0,13808,13808,0,0,0,
0,0,0,13808,13808,0,0,0,0,0,0,0,0,0,0,0,0,0,0,0,0,0,0,0,0,13808,0,0,0,0,
0,13808,0,13808,13808,0,0,0,0,0,0,0,0,0,0,0,0,0,0,0,0,0,0,0,0,13808,0,0,0,0,
0,0,0,13808,13808,0,0,0,0,0,0,0,0,0,0,0,0,0,0,0,0,0,0,0,0,13808,0,0,0,0,
0,0,0,13808,13808,0,0,0,0,0,0,0,0,0,0,0,0,0,0,0,0,0,0,0,13808,13808,13808,0,0,0,
0,0,0,13808,13808,0,0,0,0,0,0,0,0,0,0,0,0,0,0,0,0,0,0,13808,13808,0,0,0,0,0,
0,0,0,13808,0,0,0,0,0,0,0,0,0,0,0,0,0,0,0,0,0,0,13808,13808,0,0,0,0,0,0,
0,0,0,13808,0,0,0,0,0,0,0,0,0,0,0,0,0,0,0,0,0,0,13808,13808,0,0,13808,0,0,0,
0,0,13808,13808,13808,0,13808,13808,13808,13808,13808,13808,0,0,0,0,0,0,13808,13808,13808,13808,13808,13808,0,0,0,0,0,0,
0,0,0,0,0,0,0,0,0,0,0,0,0,0,0,0,0,0,0,0,0,0,0,0,0,0,0,0,0,0,
0,0,0,0,0,0,0,0,0,0,0,0,0,0,0,0,0,0,0,0,0,0,0,0,0,0,0,0,0,0,
0,0,0,0,0,0,0,0,0,0,0,0,0,0,0,0,0,0,0,0,0,0,0,0,0,0,0,0,0,0,
0,0,0,0,0,0,0,0,0,0,0,0,0,0,0,0,0,0,0,0,0,0,0,0,0,0,0,0,0,0
</data>
 </layer>
 <layer id="7" name="systemtags" width="30" height="30">
  <data encoding="csv">
13944,13944,13944,13944,13944,13944,13944,13944,13944,13944,13944,13944,13944,13944,13944,13944,13944,13944,13944,13944,13944,13944,13944,13944,13944,13944,13944,13944,13944,13944,
13944,13944,13944,13944,13944,13944,13944,13944,13944,13944,13944,13944,13944,13944,13944,13944,13944,13944,13944,13944,13944,13944,13944,13944,13944,13944,13944,13944,13944,13944,
13944,13944,13944,13944,13944,13944,13944,13944,13944,13944,13944,13944,13944,13944,13944,13944,13944,13944,13944,13944,13952,13952,13952,13952,13944,13944,13944,13944,13944,13944,
13944,13944,13944,13944,13944,13944,13944,13944,13944,13944,13944,13944,13944,13944,13944,13944,13944,13944,13944,13952,13952,13952,13952,13952,13952,13952,13944,13944,13944,13944,
13944,13944,13944,13944,13944,13944,13944,13944,13944,13944,13944,13944,13944,13944,13944,13944,13944,13944,13944,13952,13952,13952,13952,13952,13952,13944,13944,13944,13944,13944,
13944,13944,13944,13944,13944,13944,13944,13944,13944,13952,13952,13952,13944,13944,13944,13944,13944,13944,13944,13952,13952,13944,13944,13952,13952,13944,13944,13944,13944,13944,
13944,13944,13944,13944,13944,13944,13944,13944,13944,13952,13952,13952,13952,13944,13944,13944,13944,13944,13944,13944,13944,13944,13944,13944,13944,13944,13944,13944,13944,13944,
13944,13944,13944,13944,13944,13944,13952,13952,13952,13952,13952,13952,13952,13944,13944,13944,13944,13944,13944,13944,13944,13944,13944,13944,13944,13944,13944,13944,13944,13944,
13944,13944,13944,13944,13944,13944,13948,13948,13947,13947,13947,13947,13952,13952,13944,13944,13944,13944,13944,13944,13944,13944,13944,13944,13944,13944,13944,13944,13944,13944,
13944,13944,13944,13944,13944,13952,13948,13948,13947,13947,13947,13947,13952,13952,13944,13944,13944,13944,13944,13944,13944,13944,13944,13944,13944,13944,13944,13944,13944,13944,
13944,13944,13944,13944,13944,13947,13952,13952,13947,13947,13947,13947,13947,13947,13944,13944,13944,13944,13944,13944,13944,13952,13952,13944,13944,13944,13944,13944,13944,13944,
13944,13944,13944,13944,13944,13947,13948,13948,13946,13946,13946,13952,13947,13949,13949,13949,13949,13949,13949,13949,13952,13952,13952,13949,13947,13944,13944,13944,13944,13944,
13944,13944,13944,13944,13944,13947,13948,13948,13946,13946,13946,13952,13947,13949,13949,13949,13947,13947,13948,13948,13952,13952,13952,13949,13947,13944,13944,13944,13944,13944,
13944,13944,13944,13944,13944,13949,13948,13948,13952,13952,13952,13949,13947,13946,13946,13946,13952,13952,13949,13949,13949,13949,13949,13949,13947,13944,13944,13944,13944,13944,
13944,13944,13944,13944,13944,13944,13948,13948,13947,13952,13952,13947,13946,13946,13946,13946,13952,13952,13949,13949,13949,13949,13949,13949,13947,13944,13944,13944,13944,13944,
13944,13944,13944,13944,13944,13944,13944,13944,13947,13948,13948,13947,13947,13946,13949,13949,13949,13952,13946,13949,13949,13949,13949,13949,13947,13944,13944,13944,13944,13944,
13944,13944,13944,13944,13944,13944,13944,13944,13947,13948,13948,13947,13947,13948,13952,13949,13947,13947,13948,13948,13948,13952,13952,13952,13947,13944,13944,13944,13944,13944,
13944,13944,13944,13944,13944,13944,13944,13944,13947,13948,13948,13947,13947,13948,13952,13949,13947,13947,13948,13946,13946,13952,13952,13948,13947,13944,13944,13944,13944,13944,
13944,13944,13944,13944,13944,13947,13946,13946,13946,13948,13948,13947,13947,13948,13948,13948,13947,13947,13946,13946,13946,13952,13952,13948,13947,13944,13944,13944,13944,13944,
13944,13944,13944,13944,13944,13947,13947,13947,13952,13946,13948,13947,13947,13948,13948,13948,13947,13947,13952,13946,13952,13952,13949,13948,13947,13944,13944,13944,13944,13944,
13944,13944,13944,13944,13944,13947,13947,13947,13952,13948,13948,13946,13947,13948,13948,13947,13946,13946,13952,13952,13952,13949,13948,13947,13946,13944,13944,13944,13944,13944,
13944,13944,13944,13944,13944,13947,13949,13947,13946,13952,13946,13946,13946,13952,13952,13952,13949,13949,13949,13949,13949,13948,13947,13946,13944,13944,13944,13944,13944,13944,
13944,13944,13944,13944,13944,13947,13949,13947,13952,13952,13946,13946,13946,13952,13952,13952,13949,13949,13949,13949,13948,13947,13946,13944,13944,13944,13944,13944,13944,13944,
13944,13944,13944,13944,13944,13944,13944,13949,13949,13949,13949,13949,13949,13952,13952,13952,13949,13949,13949,13947,13947,13946,13944,13944,13944,13944,13944,13944,13944,13944,
13944,13944,13944,13944,13944,13944,13944,13944,13949,13949,13949,13949,13949,13952,13944,13952,13947,13946,13946,13946,13946,13944,13944,13944,13944,13944,13944,13944,13944,13944,
13944,13944,13944,13944,13944,13944,13944,13944,13944,13944,13944,13944,13944,13944,13944,13944,13944,13944,13944,13944,13944,13944,13944,13944,13944,13944,13944,13944,13944,13944,
13944,13944,13944,13944,13944,13944,13944,13944,13944,13944,13944,13944,13944,13944,13944,13944,13944,13944,13944,13944,13944,13944,13944,13944,13944,13944,13944,13944,13944,13944,
13944,13944,13944,13944,13944,13944,13944,13944,13944,13944,13944,13944,13944,13944,13944,13944,13944,13944,13944,13944,13944,13944,13944,13944,13944,13944,13944,13944,13944,13944,
13944,13944,13944,13944,13944,13944,13944,13944,13944,13944,13944,13944,13944,13944,13944,13944,13944,13944,13944,13944,13944,13944,13944,13944,13944,13944,13944,13944,13944,13944,
13944,13944,13944,13944,13944,13944,13944,13944,13944,13944,13944,13944,13944,13944,13944,13944,13944,13944,13944,13944,13944,13944,13944,13944,13944,13944,13944,13944,13944,13944
</data>
 </layer>
 <group id="2" name="infos"/>
</map>
