<?xml version="1.0" encoding="UTF-8"?>
<map version="1.10" tiledversion="1.12.2" orientation="orthogonal" renderorder="left-up" width="32" height="16" tilewidth="32" tileheight="32" infinite="1" nextlayerid="19" nextobjectid="1">
 <tileset firstgid="1" source="../Tilesets/exterior_spring.tsx"/>
 <tileset firstgid="2513" source="../Tilesets/passages.tsx"/>
 <tileset firstgid="2657" source=":/automap-tiles.tsx"/>
 <tileset firstgid="2662" source="../Tilesets/systemtags.tsx"/>
 <tileset firstgid="2790" source="../Tilesets/Interiors.tsx"/>
 <tileset firstgid="3574" source="../Tilesets/animations_water.tsx"/>
 <layer id="16" name="input_water_1" width="32" height="16">
  <data encoding="csv">
   <chunk x="0" y="0" width="16" height="16">
0,0,0,0,0,0,0,0,0,0,0,0,0,0,0,0,
0,0,0,0,0,0,0,0,0,0,0,0,0,0,0,0,
0,0,0,0,0,0,0,0,0,0,0,0,0,0,0,0,
0,0,0,0,0,0,0,0,0,0,0,0,0,0,0,0,
0,0,0,0,0,0,0,0,0,0,0,0,0,0,0,0,
0,3574,3575,3734,3734,3575,3734,3576,0,0,0,0,0,0,0,0,
0,3652,3653,3653,3653,3653,3653,3654,0,0,0,0,0,0,0,0,
0,3657,3653,3577,3578,3579,3653,3655,0,0,0,0,0,0,0,0,
0,3652,3653,3655,0,3652,3653,3654,0,0,0,0,0,0,0,0,
0,3657,3653,3733,3734,3735,3653,3655,0,0,0,0,0,0,0,0,
0,3657,3653,3653,3653,3653,3653,3654,0,0,0,0,0,0,0,0,
0,3730,3731,3731,3731,3578,3578,3732,0,0,0,0,0,0,0,0,
0,0,0,0,0,0,0,0,0,0,0,0,0,0,0,0,
0,0,0,0,0,0,0,0,0,0,0,0,0,0,0,0,
0,0,0,0,0,0,0,0,0,0,0,0,0,0,0,0,
0,0,0,0,0,0,0,0,0,0,0,0,0,0,0,0
</chunk>
  </data>
 </layer>
 <layer id="18" name="input_waterfall_1" width="32" height="16" visible="0">
  <data encoding="csv">
   <chunk x="0" y="0" width="16" height="16">
0,0,0,0,0,0,0,0,0,0,0,0,0,0,0,0,
0,0,0,0,0,0,0,0,0,0,0,0,0,0,0,0,
0,0,0,0,0,0,0,0,0,0,0,0,0,0,0,0,
0,0,0,0,0,0,0,0,0,0,0,0,0,0,0,0,
0,0,0,0,0,0,0,0,0,0,0,0,0,0,0,0,
0,0,0,0,0,0,0,0,0,0,3582,3583,0,0,0,0,
0,0,0,0,0,0,0,0,0,0,3660,3661,0,0,0,0,
0,0,0,0,0,0,0,0,0,0,3738,3739,0,0,0,0,
0,0,0,0,0,0,0,0,0,0,3816,3817,0,0,0,0,
0,0,0,0,0,0,0,0,0,0,0,0,0,0,0,0,
0,0,0,0,0,0,0,0,0,0,0,0,0,0,0,0,
0,0,0,0,0,0,0,0,0,0,0,0,0,0,0,0,
0,0,0,0,0,0,0,0,0,0,0,0,0,0,0,0,
0,0,0,0,0,0,0,0,0,0,0,0,0,0,0,0,
0,0,0,0,0,0,0,0,0,0,0,0,0,0,0,0,
0,0,0,0,0,0,0,0,0,0,0,0,0,0,0,0
</chunk>
  </data>
 </layer>
 <layer id="17" name="input_rapids_1" width="32" height="16">
  <data encoding="csv">
   <chunk x="0" y="0" width="16" height="16">
0,0,0,0,0,0,0,0,0,0,0,0,0,0,0,0,
0,0,0,0,0,0,0,0,0,0,0,0,0,0,0,0,
0,0,0,0,0,0,0,0,0,0,0,0,0,0,0,0,
0,0,0,0,0,0,0,0,0,0,0,0,0,0,3634,0,
0,0,0,0,0,0,0,0,0,0,0,0,0,0,0,0,
0,0,0,0,0,0,0,0,0,0,0,0,0,0,3586,0,
0,0,0,0,0,0,0,0,0,0,0,0,0,0,0,0,
0,0,0,0,0,0,0,0,0,0,0,0,0,0,3663,0,
0,0,0,0,0,0,0,0,0,0,0,0,0,0,0,0,
0,0,0,0,0,0,0,0,0,0,0,0,0,0,3741,0,
0,0,0,0,0,0,0,0,0,0,0,0,3819,0,0,0,
0,0,0,0,0,0,0,0,0,0,0,0,0,0,3897,0,
0,0,0,0,0,0,0,0,0,0,0,0,0,0,0,0,
0,0,0,0,0,0,0,0,0,0,0,0,0,0,3975,0,
0,0,0,0,0,0,0,0,0,0,0,0,0,0,0,0,
0,0,0,0,0,0,0,0,0,0,0,0,0,0,0,0
</chunk>
   <chunk x="16" y="0" width="16" height="16">
0,0,0,0,0,0,0,0,0,0,0,0,0,0,0,0,
0,0,0,0,0,0,0,0,0,0,0,0,0,0,0,0,
0,0,0,0,0,0,0,0,0,0,0,0,0,0,0,0,
3712,0,0,0,0,0,0,0,0,0,0,0,0,0,0,0,
0,0,0,0,0,0,0,0,0,0,0,0,0,0,0,0,
3585,0,3587,0,0,0,0,0,0,0,0,0,0,0,0,0,
0,0,0,0,0,0,0,0,0,0,0,0,0,0,0,0,
3664,0,3665,0,0,0,0,0,0,0,0,0,0,0,0,0,
0,0,0,0,0,0,0,0,0,0,0,0,0,0,0,0,
0,3759,0,0,0,0,0,0,0,0,0,0,0,0,0,0,
0,0,0,3837,0,0,0,0,0,0,0,0,0,0,0,0,
0,3915,0,0,0,0,0,0,0,0,0,0,0,0,0,0,
0,0,0,0,0,0,0,0,0,0,0,0,0,0,0,0,
0,3993,0,0,0,0,0,0,0,0,0,0,0,0,0,0,
0,0,0,0,0,0,0,0,0,0,0,0,0,0,0,0,
0,0,0,0,0,0,0,0,0,0,0,0,0,0,0,0
</chunk>
  </data>
 </layer>
 <layer id="14" name="output_systemtags" width="32" height="16">
  <data encoding="csv">
   <chunk x="0" y="0" width="16" height="16">
0,0,0,0,0,0,0,0,0,0,0,0,0,0,0,0,
0,0,0,0,0,0,0,0,0,0,0,0,0,0,0,0,
0,0,0,0,0,0,0,0,0,0,0,0,0,0,0,0,
0,0,0,0,0,0,0,0,0,0,0,0,0,0,2671,0,
0,0,0,0,0,0,0,0,0,0,0,0,0,0,0,0,
0,2677,2677,2677,2677,2677,2677,2677,0,0,2665,2665,0,0,2671,0,
0,2677,2677,2677,2677,2677,2677,2677,0,0,2665,2665,0,0,0,0,
0,2677,2677,2677,0,2677,2677,2677,0,0,2665,2665,0,0,2674,0,
0,2677,2677,2677,0,2677,2677,2677,0,0,0,0,0,0,0,0,
0,2677,2677,2677,2677,2677,2677,2677,0,0,0,0,0,0,2672,0,
0,2677,2677,2677,2677,2677,2677,2677,0,0,0,0,2672,0,0,0,
0,0,0,0,0,0,0,0,0,0,0,0,0,0,2672,0,
0,0,0,0,0,0,0,0,0,0,0,0,0,0,0,0,
0,0,0,0,0,0,0,0,0,0,0,0,0,0,2672,0,
0,0,0,0,0,0,0,0,0,0,0,0,0,0,0,0,
0,0,0,0,0,0,0,0,0,0,0,0,0,0,0,0
</chunk>
   <chunk x="16" y="0" width="16" height="16">
0,0,0,0,0,0,0,0,0,0,0,0,0,0,0,0,
0,0,0,0,0,0,0,0,0,0,0,0,0,0,0,0,
0,0,0,0,0,0,0,0,0,0,0,0,0,0,0,0,
2672,0,0,0,0,0,0,0,0,0,0,0,0,0,0,0,
0,0,0,0,0,0,0,0,0,0,0,0,0,0,0,0,
2671,0,2672,0,0,0,0,0,0,0,0,0,0,0,0,0,
0,0,0,0,0,0,0,0,0,0,0,0,0,0,0,0,
2674,0,2674,0,0,0,0,0,0,0,0,0,0,0,0,0,
0,0,0,0,0,0,0,0,0,0,0,0,0,0,0,0,
0,2672,0,0,0,0,0,0,0,0,0,0,0,0,0,0,
0,0,0,2672,0,0,0,0,0,0,0,0,0,0,0,0,
0,2672,0,0,0,0,0,0,0,0,0,0,0,0,0,0,
0,0,0,0,0,0,0,0,0,0,0,0,0,0,0,0,
0,2672,0,0,0,0,0,0,0,0,0,0,0,0,0,0,
0,0,0,0,0,0,0,0,0,0,0,0,0,0,0,0,
0,0,0,0,0,0,0,0,0,0,0,0,0,0,0,0
</chunk>
  </data>
 </layer>
</map>
